; generated by Slic3r 1.2.9 on 2017-08-07 at 02:38:02

; external perimeters extrusion width = 0.40mm
; perimeters extrusion width = 0.48mm
; infill extrusion width = 0.48mm
; solid infill extrusion width = 0.48mm
; top infill extrusion width = 0.48mm
; support material extrusion width = 0.40mm

M107
M104 S200 ; set temperature
G28 ; home all axes
G1 Z5 F5000 ; lift nozzle

M109 S200 ; wait for temperature to be reached
G21 ; set units to millimeters
G90 ; use absolute coordinates
M82 ; use absolute distances for extrusion
G92 E0
G1 Z0.350 F7800.000
G1 E-2.00000 F2400.00000
G92 E0
G1 X76.018 Y118.224 F7800.000
G1 E2.00000 F2400.00000
G1 X78.170 Y117.431 E2.20854 F1800.000
G1 X79.350 Y117.325 E2.31625
G1 X170.650 Y117.325 E10.61812
G1 X172.909 Y117.722 E10.82666
G1 X174.897 Y118.865 E11.03521 F1800.000
G1 X176.376 Y120.618 E11.24375
G1 X177.169 Y122.770 E11.45229
G1 X177.275 Y123.950 E11.56000
G1 X177.275 Y186.050 E17.20673
G1 X176.878 Y188.309 E17.41527
G1 X175.735 Y190.297 E17.62381
G1 X173.982 Y191.776 E17.83235
G1 X171.830 Y192.569 E18.04090
G1 X170.650 Y192.675 E18.14861
G1 X79.350 Y192.675 E26.45048
G1 X77.091 Y192.278 E26.65902
G1 X75.103 Y191.135 E26.86756
G1 X73.624 Y189.382 E27.07610
G1 X72.831 Y187.230 E27.28465
G1 X72.725 Y186.050 E27.39235
G1 X72.725 Y123.950 E33.03908
G1 X73.122 Y121.691 E33.24762
G1 X74.265 Y119.703 E33.45617
G1 X75.972 Y118.263 E33.65925
G1 E31.65925 F2400.00000
G92 E0
G1 X169.050 Y184.450 F7800.000
G1 E2.00000 F2400.00000
G1 X80.950 Y184.450 E10.01094 F1800.000
G1 X80.950 Y125.550 E15.36673
G1 X169.050 Y125.550 E23.37767
G1 X169.050 Y184.390 E28.72800
G1 X169.675 Y185.075 F7800.000
G1 X80.325 Y185.075 E36.85258 F1800.000
G1 X80.325 Y124.925 E42.32201
G1 X169.675 Y124.925 E50.44659
G1 X169.675 Y185.015 E55.91057
G1 X170.300 Y185.700 F7800.000
G1 X79.700 Y185.700 E64.14879 F1800.000
G1 X79.700 Y124.300 E69.73187
G1 X170.300 Y124.300 E77.97009
G1 X170.300 Y185.640 E83.54771
G1 X169.954 Y185.500 F7800.000
G1 X168.672 Y126.233 F7800.000
G1 X168.367 Y125.928 E83.58717 F1800.000
G1 X167.478 Y125.928 E83.66845
G1 X168.672 Y127.122 E83.82287
G1 X168.672 Y128.011 E83.90415
G1 X166.589 Y125.928 E84.17352
G1 X165.700 Y125.928 E84.25481
G1 X168.672 Y128.900 E84.63913
G1 X168.672 Y129.789 E84.72041
G1 X164.811 Y125.928 E85.21969
G1 X163.922 Y125.928 E85.30098
G1 X168.672 Y130.678 E85.91520
G1 X168.672 Y131.566 E85.99649
G1 X163.034 Y125.928 E86.72567
G1 X162.145 Y125.928 E86.80696
G1 X168.672 Y132.455 E87.65109
G1 X168.672 Y133.344 E87.73238
G1 X161.256 Y125.928 E88.69147
G1 X160.367 Y125.928 E88.77275
G1 X168.672 Y134.233 E89.84680
G1 X168.672 Y135.122 E89.92808
G1 X159.478 Y125.928 E91.11708
G1 X158.590 Y125.928 E91.19836
G1 X168.672 Y136.010 E92.50231
G1 X168.672 Y136.899 E92.58360
G1 X157.701 Y125.928 E94.00250
G1 X156.812 Y125.928 E94.08379
G1 X168.672 Y137.788 E95.61765
G1 X168.672 Y138.677 E95.69893
G1 X155.923 Y125.928 E97.34774
G1 X155.034 Y125.928 E97.42903
G1 X168.672 Y139.566 E99.19279
G1 X168.672 Y140.454 E99.27408
G1 X154.146 Y125.928 E101.15279
G1 X153.257 Y125.928 E101.23408
G1 X168.672 Y141.343 E103.22775
G1 X168.672 Y142.232 E103.30904
G1 X152.368 Y125.928 E105.41766
G1 X151.479 Y125.928 E105.49895
G1 X168.672 Y143.121 E107.72253
G1 X168.672 Y144.010 E107.80381
G1 X150.590 Y125.928 E110.14234
G1 X149.701 Y125.928 E110.22363
G1 X168.672 Y144.899 E112.67711
G1 X168.672 Y145.787 E112.75840
G1 X148.813 Y125.928 E115.32684
G1 X147.924 Y125.928 E115.40812
G1 X168.672 Y146.676 E118.09152
G1 X168.672 Y147.565 E118.17280
G1 X147.035 Y125.928 E120.97115
G1 X146.146 Y125.928 E121.05243
G1 X168.672 Y148.454 E123.96573
G1 X168.672 Y149.343 E124.04702
G1 X145.257 Y125.928 E127.07527
G1 X144.369 Y125.928 E127.15655
G1 X168.672 Y150.231 E130.29976
G1 X168.672 Y151.120 E130.38105
G1 X143.480 Y125.928 E133.63921
G1 X142.591 Y125.928 E133.72049
G1 X168.672 Y152.009 E137.09361
G1 X168.672 Y152.898 E137.17489
G1 X141.702 Y125.928 E140.66296
G1 X140.813 Y125.928 E140.74424
G1 X168.672 Y153.787 E144.34726
G1 X168.672 Y154.675 E144.42855
G1 X139.925 Y125.928 E148.14652
G1 X139.036 Y125.928 E148.22781
G1 X168.672 Y155.564 E152.06074
G1 X168.672 Y156.453 E152.14202
G1 X138.147 Y125.928 E156.08990
G1 X137.258 Y125.928 E156.17119
G1 X168.672 Y157.342 E160.23402
G1 X168.672 Y158.231 E160.31531
G1 X136.369 Y125.928 E164.49310
G1 X135.480 Y125.928 E164.57438
G1 X168.672 Y159.120 E168.86713
G1 X168.672 Y160.008 E168.94841
G1 X134.592 Y125.928 E173.35611
G1 X133.703 Y125.928 E173.43739
G1 X168.672 Y160.897 E177.96004
G1 X168.672 Y161.786 E178.04132
G1 X132.814 Y125.928 E182.67893
G1 X131.925 Y125.928 E182.76021
G1 X168.672 Y162.675 E187.51277
G1 X168.672 Y163.564 E187.59405
G1 X131.036 Y125.928 E192.46156
G1 X130.148 Y125.928 E192.54285
G1 X168.672 Y164.452 E197.52531
G1 X168.672 Y165.341 E197.60660
G1 X129.259 Y125.928 E202.70402
G1 X128.370 Y125.928 E202.78530
G1 X168.672 Y166.230 E207.99767
G1 X168.672 Y167.119 E208.07896
G1 X127.481 Y125.928 E213.40628
G1 X126.592 Y125.928 E213.48756
G1 X168.672 Y168.008 E218.92984
G1 X168.672 Y168.896 E219.01113
G1 X125.704 Y125.928 E224.56836
G1 X124.815 Y125.928 E224.64964
G1 X168.672 Y169.785 E230.32183
G1 X168.672 Y170.674 E230.40311
G1 X123.926 Y125.928 E236.19025
G1 X123.037 Y125.928 E236.27154
G1 X168.672 Y171.563 E242.17363
G1 X168.672 Y172.452 E242.25491
G1 X122.148 Y125.928 E248.27196
G1 X121.259 Y125.928 E248.35324
G1 X168.672 Y173.341 E254.48524
G1 X168.672 Y174.229 E254.56653
G1 X120.371 Y125.928 E260.81348
G1 X119.482 Y125.928 E260.89476
G1 X168.672 Y175.118 E267.25667
G1 X168.672 Y176.007 E267.33796
G1 X118.593 Y125.928 E273.81482
G1 X117.704 Y125.928 E273.89610
G1 X168.672 Y176.896 E280.48791
G1 X168.672 Y177.785 E280.56920
G1 X116.815 Y125.928 E287.27596
G1 X115.927 Y125.928 E287.35725
G1 X168.672 Y178.673 E294.17897
G1 X168.672 Y179.562 E294.26025
G1 X115.038 Y125.928 E301.19693
G1 X114.149 Y125.928 E301.27821
G1 X168.672 Y180.451 E308.32984
G1 X168.672 Y181.340 E308.41112
G1 X113.260 Y125.928 E315.57771
G1 X112.371 Y125.928 E315.65899
G1 X168.672 Y182.229 E322.94053
G1 X168.672 Y183.117 E323.02181
G1 X111.483 Y125.928 E330.41830
G1 X110.594 Y125.928 E330.49958
G1 X168.672 Y184.006 E338.01102
G1 X167.848 Y184.072 E338.08657
G1 X109.705 Y125.928 E345.60646
G1 X108.816 Y125.928 E345.68775
G1 X166.959 Y184.072 E353.20764
G1 X166.071 Y184.072 E353.28893
G1 X107.927 Y125.928 E360.80882
G1 X107.038 Y125.928 E360.89011
G1 X165.182 Y184.072 E368.41000
G1 X164.293 Y184.072 E368.49129
G1 X106.150 Y125.928 E376.01118
G1 X105.261 Y125.928 E376.09247
G1 X163.404 Y184.072 E383.61236
G1 X162.515 Y184.072 E383.69365
G1 X104.372 Y125.928 E391.21354
G1 X103.483 Y125.928 E391.29482
G1 X161.627 Y184.072 E398.81472
G1 X160.738 Y184.072 E398.89600
G1 X102.594 Y125.928 E406.41590
G1 X101.706 Y125.928 E406.49718
G1 X159.849 Y184.072 E414.01708
G1 X158.960 Y184.072 E414.09836
G1 X100.817 Y125.928 E421.61826
G1 X99.928 Y125.928 E421.69954
G1 X158.071 Y184.072 E429.21944
G1 X157.182 Y184.072 E429.30072
G1 X99.039 Y125.928 E436.82062
G1 X98.150 Y125.928 E436.90190
G1 X156.294 Y184.072 E444.42180
G1 X155.405 Y184.072 E444.50308
G1 X97.262 Y125.928 E452.02298
G1 X96.373 Y125.928 E452.10426
G1 X154.516 Y184.072 E459.62416
G1 X153.627 Y184.072 E459.70544
G1 X95.484 Y125.928 E467.22534
G1 X94.595 Y125.928 E467.30662
G1 X152.738 Y184.072 E474.82652
G1 X151.850 Y184.072 E474.90780
G1 X93.706 Y125.928 E482.42769
G1 X92.817 Y125.928 E482.50898
G1 X150.961 Y184.072 E490.02887
G1 X150.072 Y184.072 E490.11016
G1 X91.929 Y125.928 E497.63005
G1 X91.040 Y125.928 E497.71134
G1 X149.183 Y184.072 E505.23123
G1 X148.294 Y184.072 E505.31252
G1 X90.151 Y125.928 E512.83241
G1 X89.262 Y125.928 E512.91370
G1 X147.406 Y184.072 E520.43359
G1 X146.517 Y184.072 E520.51488
G1 X88.373 Y125.928 E528.03477
G1 X87.485 Y125.928 E528.11606
G1 X145.628 Y184.072 E535.63595
G1 X144.739 Y184.072 E535.71724
G1 X86.596 Y125.928 E543.23713
G1 X85.707 Y125.928 E543.31842
G1 X143.850 Y184.072 E550.83831
G1 X142.961 Y184.072 E550.91960
G1 X84.818 Y125.928 E558.43949
G1 X83.929 Y125.928 E558.52077
G1 X142.073 Y184.072 E566.04067
G1 X141.184 Y184.072 E566.12195
G1 X83.041 Y125.928 E573.64185
G1 X82.152 Y125.928 E573.72313
G1 X140.295 Y184.072 E581.24303
G1 X139.406 Y184.072 E581.32431
G1 X81.328 Y125.994 E588.83574
G1 X81.328 Y126.883 E588.91703
G1 X138.517 Y184.072 E596.31350
G1 X137.629 Y184.072 E596.39479
G1 X81.328 Y127.771 E603.67631
G1 X81.328 Y128.660 E603.75760
G1 X136.740 Y184.072 E610.92417
G1 X135.851 Y184.072 E611.00545
G1 X81.328 Y129.549 E618.05707
G1 X81.328 Y130.438 E618.13835
G1 X134.962 Y184.072 E625.07501
G1 X134.073 Y184.072 E625.15630
G1 X81.328 Y131.327 E631.97801
G1 X81.328 Y132.215 E632.05929
G1 X133.185 Y184.072 E638.76605
G1 X132.296 Y184.072 E638.84733
G1 X81.328 Y133.104 E645.43913
G1 X81.328 Y133.993 E645.52042
G1 X131.407 Y184.072 E651.99727
G1 X130.518 Y184.072 E652.07855
G1 X81.328 Y134.882 E658.44044
G1 X81.328 Y135.771 E658.52173
G1 X129.629 Y184.072 E664.76867
G1 X128.740 Y184.072 E664.84995
G1 X81.328 Y136.660 E670.98194
G1 X81.328 Y137.548 E671.06323
G1 X127.852 Y184.072 E677.08026
G1 X126.963 Y184.072 E677.16155
G1 X81.328 Y138.437 E683.06363
G1 X81.328 Y139.326 E683.14491
G1 X126.074 Y184.072 E688.93204
G1 X125.185 Y184.072 E689.01332
G1 X81.328 Y140.215 E694.68550
G1 X81.328 Y141.104 E694.76678
G1 X124.296 Y184.072 E700.32400
G1 X123.408 Y184.072 E700.40528
G1 X81.328 Y141.992 E705.84755
G1 X81.328 Y142.881 E705.92884
G1 X122.519 Y184.072 E711.25615
G1 X121.630 Y184.072 E711.33743
G1 X81.328 Y143.770 E716.54979
G1 X81.328 Y144.659 E716.63108
G1 X120.741 Y184.072 E721.72848
G1 X119.852 Y184.072 E721.80977
G1 X81.328 Y145.548 E726.79222
G1 X81.328 Y146.436 E726.87350
G1 X118.964 Y184.072 E731.74100
G1 X118.075 Y184.072 E731.82229
G1 X81.328 Y147.325 E736.57483
G1 X81.328 Y148.214 E736.65612
G1 X117.186 Y184.072 E741.29371
G1 X116.297 Y184.072 E741.37499
G1 X81.328 Y149.103 E745.89763
G1 X81.328 Y149.992 E745.97892
G1 X115.408 Y184.072 E750.38660
G1 X114.519 Y184.072 E750.46789
G1 X81.328 Y150.881 E754.76062
G1 X81.328 Y151.769 E754.84190
G1 X113.631 Y184.072 E759.01968
G1 X112.742 Y184.072 E759.10097
G1 X81.328 Y152.658 E763.16379
G1 X81.328 Y153.547 E763.24507
G1 X111.853 Y184.072 E767.19294
G1 X110.964 Y184.072 E767.27423
G1 X81.328 Y154.436 E771.10715
G1 X81.328 Y155.325 E771.18843
G1 X110.075 Y184.072 E774.90639
G1 X109.187 Y184.072 E774.98768
G1 X81.328 Y156.213 E778.59069
G1 X81.328 Y157.102 E778.67197
G1 X108.298 Y184.072 E782.16003
G1 X107.409 Y184.072 E782.24131
G1 X81.328 Y157.991 E785.61442
G1 X81.328 Y158.880 E785.69570
G1 X106.520 Y184.072 E788.95385
G1 X105.631 Y184.072 E789.03514
G1 X81.328 Y159.769 E792.17833
G1 X81.328 Y160.657 E792.25962
G1 X104.743 Y184.072 E795.28786
G1 X103.854 Y184.072 E795.36914
G1 X81.328 Y161.546 E798.28243
G1 X81.328 Y162.435 E798.36372
G1 X102.965 Y184.072 E801.16205
G1 X102.076 Y184.072 E801.24334
G1 X81.328 Y163.324 E803.92672
G1 X81.328 Y164.213 E804.00800
G1 X101.187 Y184.072 E806.57643
G1 X100.298 Y184.072 E806.65772
G1 X81.328 Y165.102 E809.11119
G1 X81.328 Y165.990 E809.19248
G1 X99.410 Y184.072 E811.53100
G1 X98.521 Y184.072 E811.61228
G1 X81.328 Y166.879 E813.83585
G1 X81.328 Y167.768 E813.91713
G1 X97.632 Y184.072 E816.02575
G1 X96.743 Y184.072 E816.10703
G1 X81.328 Y168.657 E818.10069
G1 X81.328 Y169.546 E818.18198
G1 X95.854 Y184.072 E820.06068
G1 X94.966 Y184.072 E820.14197
G1 X81.328 Y170.434 E821.90572
G1 X81.328 Y171.323 E821.98701
G1 X94.077 Y184.072 E823.63581
G1 X93.188 Y184.072 E823.71709
G1 X81.328 Y172.212 E825.25094
G1 X81.328 Y173.101 E825.33222
G1 X92.299 Y184.072 E826.75112
G1 X91.410 Y184.072 E826.83240
G1 X81.328 Y173.990 E828.13634
G1 X81.328 Y174.878 E828.21762
G1 X90.522 Y184.072 E829.40661
G1 X89.633 Y184.072 E829.48790
G1 X81.328 Y175.767 E830.56193
G1 X81.328 Y176.656 E830.64321
G1 X88.744 Y184.072 E831.60229
G1 X87.855 Y184.072 E831.68358
G1 X81.328 Y177.545 E832.52770
G1 X81.328 Y178.434 E832.60899
G1 X86.966 Y184.072 E833.33816
G1 X86.077 Y184.072 E833.41944
G1 X81.328 Y179.323 E834.03366
G1 X81.328 Y180.211 E834.11495
G1 X85.189 Y184.072 E834.61421
G1 X84.300 Y184.072 E834.69549
G1 X81.328 Y181.100 E835.07981
G1 X81.328 Y181.989 E835.16109
G1 X83.411 Y184.072 E835.43045
G1 X82.522 Y184.072 E835.51173
G1 X81.328 Y182.878 E835.66614
G1 X81.328 Y183.767 E835.74742
G1 X81.633 Y184.072 E835.78687
G1 Z0.350 F7800.000
G1 Z0.650 F7800.000
G1 X169.654 Y185.054 F7800.000
G1 X80.346 Y185.054 E840.45275 F3600.000
G1 X80.346 Y124.946 E843.59307
G1 X169.654 Y124.946 E848.25894
G1 X169.654 Y184.994 E851.39613
G1 X170.073 Y185.473 F7800.000
G1 X79.927 Y185.473 E856.10578 F3600.000
G1 X79.927 Y124.527 E859.28987
G1 X170.073 Y124.527 E863.99951
G1 X170.073 Y185.413 E867.18047
G1 X170.450 Y185.850 F7800.000
G1 X79.550 Y185.850 E870.98557 F1800.000
G1 X79.550 Y124.150 E873.56835
G1 X170.450 Y124.150 E877.37345
G1 X170.450 Y185.790 E879.95372
G1 X170.104 Y185.650 F7800.000
G1 X169.189 Y184.807 F7800.000
G1 X169.407 Y184.589 E879.96986 F1200.000
G1 X169.407 Y183.995 E880.00101
G1 X168.595 Y184.807 E880.06121
G1 X168.000 Y184.807 E880.09237
G1 X169.407 Y183.400 E880.19662
G1 X169.407 Y182.806 E880.22778
G1 X167.406 Y184.807 E880.37609
G1 X166.812 Y184.807 E880.40725
G1 X169.407 Y182.212 E880.59962
G1 X169.407 Y181.617 E880.63077
G1 X166.217 Y184.807 E880.86720
G1 X165.623 Y184.807 E880.89836
G1 X169.407 Y181.023 E881.17885
G1 X169.407 Y180.429 E881.21000
G1 X165.029 Y184.807 E881.53455
G1 X164.434 Y184.807 E881.56570
G1 X169.407 Y179.834 E881.93431
G1 X169.407 Y179.240 E881.96547
G1 X163.840 Y184.807 E882.37813
G1 X163.246 Y184.807 E882.40929
G1 X169.407 Y178.646 E882.86601
G1 X169.407 Y178.051 E882.89716
G1 X162.651 Y184.807 E883.39795
G1 X162.057 Y184.807 E883.42910
G1 X169.407 Y177.457 E883.97394
G1 X169.407 Y176.863 E884.00510
G1 X161.463 Y184.807 E884.59399
G1 X160.868 Y184.807 E884.62515
G1 X169.407 Y176.268 E885.25811
G1 X169.407 Y175.674 E885.28926
G1 X160.274 Y184.807 E885.96628
G1 X159.679 Y184.807 E885.99743
G1 X169.407 Y175.079 E886.71851
G1 X169.407 Y174.485 E886.74966
G1 X159.085 Y184.807 E887.51479
G1 X158.491 Y184.807 E887.54595
G1 X169.407 Y173.891 E888.35514
G1 X169.407 Y173.296 E888.38629
G1 X157.896 Y184.807 E889.23954
G1 X157.302 Y184.807 E889.27070
G1 X169.407 Y172.702 E890.16801
G1 X169.407 Y172.108 E890.19916
G1 X156.708 Y184.807 E891.14053
G1 X156.113 Y184.807 E891.17168
G1 X169.407 Y171.513 E892.15711
G1 X169.407 Y170.919 E892.18826
G1 X155.519 Y184.807 E893.21775
G1 X154.925 Y184.807 E893.24890
G1 X169.407 Y170.325 E894.32244
G1 X169.407 Y169.730 E894.35360
G1 X154.330 Y184.807 E895.47120
G1 X153.736 Y184.807 E895.50235
G1 X169.407 Y169.136 E896.66401
G1 X169.407 Y168.542 E896.69516
G1 X153.142 Y184.807 E897.90088
G1 X152.547 Y184.807 E897.93204
G1 X169.407 Y167.947 E899.18181
G1 X169.407 Y167.353 E899.21297
G1 X151.953 Y184.807 E900.50680
G1 X151.359 Y184.807 E900.53796
G1 X169.407 Y166.759 E901.87585
G1 X169.407 Y166.164 E901.90700
G1 X150.764 Y184.807 E903.28896
G1 X150.170 Y184.807 E903.32011
G1 X169.407 Y165.570 E904.74612
G1 X169.407 Y164.976 E904.77727
G1 X149.576 Y184.807 E906.24734
G1 X148.981 Y184.807 E906.27850
G1 X169.407 Y164.381 E907.79262
G1 X169.407 Y163.787 E907.82378
G1 X148.387 Y184.807 E909.38196
G1 X147.793 Y184.807 E909.41312
G1 X169.407 Y163.193 E911.01536
G1 X169.407 Y162.598 E911.04652
G1 X147.198 Y184.807 E912.69282
G1 X146.604 Y184.807 E912.72397
G1 X169.407 Y162.004 E914.41434
G1 X169.407 Y161.410 E914.44549
G1 X146.010 Y184.807 E916.17991
G1 X145.415 Y184.807 E916.21106
G1 X169.407 Y160.815 E917.98954
G1 X169.407 Y160.221 E918.02070
G1 X144.821 Y184.807 E919.84323
G1 X144.227 Y184.807 E919.87439
G1 X169.407 Y159.627 E921.74098
G1 X169.407 Y159.032 E921.77214
G1 X143.632 Y184.807 E923.68279
G1 X143.038 Y184.807 E923.71394
G1 X169.407 Y158.438 E925.66866
G1 X169.407 Y157.844 E925.69981
G1 X142.444 Y184.807 E927.69858
G1 X141.849 Y184.807 E927.72973
G1 X169.407 Y157.249 E929.77256
G1 X169.407 Y156.655 E929.80372
G1 X141.255 Y184.807 E931.89060
