; generated by Slic3r 1.2.9 on 2017-08-06 at 21:07:12

; external perimeters extrusion width = 0.40mm
; perimeters extrusion width = 0.48mm
; infill extrusion width = 0.48mm
; solid infill extrusion width = 0.48mm
; top infill extrusion width = 0.48mm
; support material extrusion width = 0.40mm

M107
M104 S200 ; set temperature
G28 ; home all axes
G1 Z5 F5000 ; lift nozzle

M109 S200 ; wait for temperature to be reached
G21 ; set units to millimeters
G90 ; use absolute coordinates
M82 ; use absolute distances for extrusion
G92 E0
G1 Z0.350 F7800.000
G1 E-2.00000 F2400.00000
G92 E0
G1 X77.716 Y119.385 F7800.000
G1 E2.00000 F2400.00000
G1 X80.700 Y118.675 E2.27894 F1800.000
G1 X169.300 Y118.675 E10.33530
G1 X171.559 Y119.072 E10.54384
G1 X173.547 Y120.215 E10.75238 F1800.000
G1 X175.026 Y121.968 E10.96093
G1 X175.819 Y124.120 E11.16947
G1 X175.925 Y125.300 E11.27718
G1 X175.925 Y184.700 E16.67840
G1 X175.528 Y186.959 E16.88694
G1 X174.385 Y188.947 E17.09548
G1 X172.632 Y190.426 E17.30402
G1 X170.480 Y191.219 E17.51256
G1 X169.300 Y191.325 E17.62027
G1 X80.700 Y191.325 E25.67663
G1 X78.441 Y190.928 E25.88518
G1 X76.453 Y189.785 E26.09372
G1 X74.974 Y188.032 E26.30226
G1 X74.086 Y185.087 E26.58193
G1 X72.907 Y164.940 E28.41706
G1 X72.896 Y145.028 E30.22761
G1 X74.087 Y124.905 E32.06061
G1 X74.618 Y122.674 E32.26915
G1 X75.878 Y120.757 E32.47769
G1 X77.668 Y119.421 E32.68078
G1 E30.68078 F2400.00000
G92 E0
G1 X167.700 Y183.100 F7800.000
G1 E2.00000 F2400.00000
G1 X82.300 Y183.100 E9.76543 F1800.000
G1 X82.300 Y126.900 E14.87571
G1 X167.700 Y126.900 E22.64114
G1 X167.700 Y183.040 E27.74596
G1 X168.325 Y183.725 F7800.000
G1 X81.675 Y183.725 E35.62503 F1800.000
G1 X81.675 Y126.275 E40.84896
G1 X168.325 Y126.275 E48.72802
G1 X168.325 Y183.665 E53.94649
G1 X168.950 Y184.350 F7800.000
G1 X81.050 Y184.350 E61.93920 F1800.000
G1 X81.050 Y125.650 E67.27677
G1 X168.950 Y125.650 E75.26948
G1 X168.950 Y184.290 E80.60159
G1 X168.604 Y184.150 F7800.000
G1 X167.322 Y127.583 F7800.000
G1 X167.017 Y127.278 E80.64103 F1800.000
G1 X166.128 Y127.278 E80.72224
G1 X167.322 Y128.472 E80.87652
G1 X167.322 Y129.360 E80.95773
G1 X165.240 Y127.278 E81.22686
G1 X164.351 Y127.278 E81.30807
G1 X167.322 Y130.249 E81.69204
G1 X167.322 Y131.137 E81.77324
G1 X163.463 Y127.278 E82.27206
G1 X162.575 Y127.278 E82.35327
G1 X167.322 Y132.025 E82.96692
G1 X167.322 Y132.914 E83.04813
G1 X161.686 Y127.278 E83.77663
G1 X160.798 Y127.278 E83.85784
G1 X167.322 Y133.802 E84.70118
G1 X167.322 Y134.691 E84.78239
G1 X159.909 Y127.278 E85.74057
G1 X159.021 Y127.278 E85.82178
G1 X167.322 Y135.579 E86.89481
G1 X167.322 Y136.467 E86.97602
G1 X158.133 Y127.278 E88.16389
G1 X157.244 Y127.278 E88.24510
G1 X167.322 Y137.356 E89.54781
G1 X167.322 Y138.244 E89.62902
G1 X156.356 Y127.278 E91.04658
G1 X155.468 Y127.278 E91.12778
G1 X167.322 Y139.132 E92.66018
G1 X167.322 Y140.021 E92.74139
G1 X154.579 Y127.278 E94.38864
G1 X153.691 Y127.278 E94.46984
G1 X167.322 Y140.909 E96.23193
G1 X167.322 Y141.798 E96.31314
G1 X152.802 Y127.278 E98.19007
G1 X151.914 Y127.278 E98.27127
G1 X167.322 Y142.686 E100.26305
G1 X167.322 Y143.574 E100.34425
G1 X151.026 Y127.278 E102.45087
G1 X150.137 Y127.278 E102.53207
G1 X167.322 Y144.463 E104.75353
G1 X167.322 Y145.351 E104.83474
G1 X149.249 Y127.278 E107.17104
G1 X148.360 Y127.278 E107.25225
G1 X167.322 Y146.240 E109.70339
G1 X167.322 Y147.128 E109.78460
G1 X147.472 Y127.278 E112.35059
G1 X146.584 Y127.278 E112.43180
G1 X167.322 Y148.016 E115.11263
G1 X167.322 Y148.905 E115.19383
G1 X145.695 Y127.278 E117.98951
G1 X144.807 Y127.278 E118.07071
G1 X167.322 Y149.793 E120.98123
G1 X167.322 Y150.681 E121.06244
G1 X143.919 Y127.278 E124.08780
G1 X143.030 Y127.278 E124.16900
G1 X167.322 Y151.570 E127.30921
G1 X167.322 Y152.458 E127.39041
G1 X142.142 Y127.278 E130.64546
G1 X141.253 Y127.278 E130.72667
G1 X167.322 Y153.347 E134.09655
G1 X167.322 Y154.235 E134.17776
G1 X140.365 Y127.278 E137.66249
G1 X139.477 Y127.278 E137.74370
G1 X167.322 Y155.123 E141.34327
G1 X167.322 Y156.012 E141.42448
G1 X138.588 Y127.278 E145.13890
G1 X137.700 Y127.278 E145.22010
G1 X167.322 Y156.900 E149.04937
G1 X167.322 Y157.789 E149.13057
G1 X136.811 Y127.278 E153.07468
G1 X135.923 Y127.278 E153.15588
G1 X167.322 Y158.677 E157.21483
G1 X167.322 Y159.565 E157.29603
G1 X135.035 Y127.278 E161.46982
G1 X134.146 Y127.278 E161.55103
G1 X167.322 Y160.454 E165.83966
G1 X167.322 Y161.342 E165.92087
G1 X133.258 Y127.278 E170.32434
G1 X132.370 Y127.278 E170.40555
G1 X167.322 Y162.230 E174.92387
G1 X167.322 Y163.119 E175.00508
G1 X131.481 Y127.278 E179.63824
G1 X130.593 Y127.278 E179.71944
G1 X167.322 Y164.007 E184.46745
G1 X167.322 Y164.896 E184.54865
G1 X129.704 Y127.278 E189.41150
G1 X128.816 Y127.278 E189.49271
G1 X167.322 Y165.784 E194.47040
G1 X167.322 Y166.672 E194.55160
G1 X127.928 Y127.278 E199.64414
G1 X127.039 Y127.278 E199.72534
G1 X167.322 Y167.561 E204.93272
G1 X167.322 Y168.449 E205.01393
G1 X126.151 Y127.278 E210.33615
G1 X125.262 Y127.278 E210.41735
G1 X167.322 Y169.338 E215.85441
G1 X167.322 Y170.226 E215.93562
G1 X124.374 Y127.278 E221.48753
G1 X123.486 Y127.278 E221.56873
G1 X167.322 Y171.114 E227.23548
G1 X167.322 Y172.003 E227.31669
G1 X122.597 Y127.278 E233.09828
G1 X121.709 Y127.278 E233.17948
G1 X167.322 Y172.891 E239.07592
G1 X167.322 Y173.779 E239.15712
G1 X120.821 Y127.278 E245.16840
G1 X119.932 Y127.278 E245.24961
G1 X167.322 Y174.668 E251.37573
G1 X167.322 Y175.556 E251.45693
G1 X119.044 Y127.278 E257.69790
G1 X118.155 Y127.278 E257.77910
G1 X167.322 Y176.445 E264.13491
G1 X167.322 Y177.333 E264.21612
G1 X117.267 Y127.278 E270.68676
G1 X116.379 Y127.278 E270.76797
G1 X167.322 Y178.221 E277.35346
G1 X167.322 Y179.110 E277.43467
G1 X115.490 Y127.278 E284.13500
G1 X114.602 Y127.278 E284.21621
G1 X167.322 Y179.998 E291.03139
G1 X167.322 Y180.887 E291.11259
G1 X113.713 Y127.278 E298.04261
G1 X112.825 Y127.278 E298.12382
G1 X167.322 Y181.775 E305.16868
G1 X167.322 Y182.663 E305.24989
G1 X111.937 Y127.278 E312.40960
G1 X111.048 Y127.278 E312.49080
G1 X166.492 Y182.722 E319.65805
G1 X165.603 Y182.722 E319.73925
G1 X110.160 Y127.278 E326.90650
G1 X109.272 Y127.278 E326.98770
G1 X164.715 Y182.722 E334.15495
G1 X163.826 Y182.722 E334.23616
G1 X108.383 Y127.278 E341.40340
G1 X107.495 Y127.278 E341.48461
G1 X162.938 Y182.722 E348.65185
G1 X162.050 Y182.722 E348.73306
G1 X106.606 Y127.278 E355.90030
G1 X105.718 Y127.278 E355.98151
G1 X161.161 Y182.722 E363.14875
G1 X160.273 Y182.722 E363.22996
G1 X104.830 Y127.278 E370.39720
G1 X103.941 Y127.278 E370.47841
G1 X159.384 Y182.722 E377.64565
G1 X158.496 Y182.722 E377.72686
G1 X103.053 Y127.278 E384.89410
G1 X102.164 Y127.278 E384.97531
G1 X157.608 Y182.722 E392.14255
G1 X156.719 Y182.722 E392.22376
G1 X101.276 Y127.278 E399.39100
G1 X100.388 Y127.278 E399.47221
G1 X155.831 Y182.722 E406.63946
G1 X154.943 Y182.722 E406.72066
G1 X99.499 Y127.278 E413.88791
G1 X98.611 Y127.278 E413.96911
G1 X154.054 Y182.722 E421.13636
G1 X153.166 Y182.722 E421.21756
G1 X97.723 Y127.278 E428.38481
G1 X96.834 Y127.278 E428.46601
G1 X152.277 Y182.722 E435.63326
G1 X151.389 Y182.722 E435.71446
G1 X95.946 Y127.278 E442.88171
G1 X95.057 Y127.278 E442.96291
G1 X150.501 Y182.722 E450.13016
G1 X149.612 Y182.722 E450.21137
G1 X94.169 Y127.278 E457.37861
G1 X93.281 Y127.278 E457.45982
G1 X148.724 Y182.722 E464.62706
G1 X147.835 Y182.722 E464.70827
G1 X92.392 Y127.278 E471.87551
G1 X91.504 Y127.278 E471.95672
G1 X146.947 Y182.722 E479.12396
G1 X146.059 Y182.722 E479.20517
G1 X90.615 Y127.278 E486.37241
G1 X89.727 Y127.278 E486.45362
G1 X145.170 Y182.722 E493.62086
G1 X144.282 Y182.722 E493.70207
G1 X88.839 Y127.278 E500.86931
G1 X87.950 Y127.278 E500.95052
G1 X143.394 Y182.722 E508.11776
G1 X142.505 Y182.722 E508.19897
G1 X87.062 Y127.278 E515.36622
G1 X86.174 Y127.278 E515.44742
G1 X141.617 Y182.722 E522.61467
G1 X140.728 Y182.722 E522.69587
G1 X85.285 Y127.278 E529.86312
G1 X84.397 Y127.278 E529.94432
G1 X139.840 Y182.722 E537.11157
G1 X138.952 Y182.722 E537.19277
G1 X83.508 Y127.278 E544.36002
G1 X82.678 Y127.337 E544.43607
G1 X138.063 Y182.722 E551.59577
G1 X137.175 Y182.722 E551.67698
G1 X82.678 Y128.225 E558.72183
G1 X82.678 Y129.114 E558.80303
G1 X136.286 Y182.722 E565.73304
G1 X135.398 Y182.722 E565.81425
G1 X82.678 Y130.002 E572.62942
G1 X82.678 Y130.890 E572.71062
G1 X134.510 Y182.722 E579.41095
G1 X133.621 Y182.722 E579.49215
G1 X82.678 Y131.779 E586.07764
G1 X82.678 Y132.667 E586.15884
G1 X132.733 Y182.722 E592.62948
G1 X131.845 Y182.722 E592.71069
G1 X82.678 Y133.555 E599.06648
G1 X82.678 Y134.444 E599.14769
G1 X130.956 Y182.722 E605.38864
G1 X130.068 Y182.722 E605.46985
G1 X82.678 Y135.332 E611.59596
G1 X82.678 Y136.221 E611.67716
G1 X129.179 Y182.722 E617.68843
G1 X128.291 Y182.722 E617.76963
G1 X82.678 Y137.109 E623.66606
G1 X82.678 Y137.997 E623.74726
G1 X127.403 Y182.722 E629.52884
G1 X126.514 Y182.722 E629.61005
G1 X82.678 Y138.886 E635.27679
G1 X82.678 Y139.774 E635.35799
G1 X125.626 Y182.722 E640.90989
G1 X124.737 Y182.722 E640.99109
G1 X82.678 Y140.663 E646.42815
G1 X82.678 Y141.551 E646.50935
G1 X123.849 Y182.722 E651.83156
G1 X122.961 Y182.722 E651.91277
G1 X82.678 Y142.439 E657.12013
G1 X82.678 Y143.328 E657.20134
G1 X122.072 Y182.722 E662.29386
G1 X121.184 Y182.722 E662.37507
G1 X82.678 Y144.216 E667.35275
G1 X82.678 Y145.104 E667.43395
G1 X120.296 Y182.722 E672.29679
G1 X119.407 Y182.722 E672.37800
G1 X82.678 Y145.993 E677.12599
G1 X82.678 Y146.881 E677.20720
G1 X118.519 Y182.722 E681.84035
G1 X117.630 Y182.722 E681.92155
G1 X82.678 Y147.770 E686.43986
G1 X82.678 Y148.658 E686.52107
G1 X116.742 Y182.722 E690.92453
G1 X115.854 Y182.722 E691.00574
G1 X82.678 Y149.546 E695.29436
G1 X82.678 Y150.435 E695.37557
G1 X114.965 Y182.722 E699.54935
G1 X114.077 Y182.722 E699.63055
G1 X82.678 Y151.323 E703.68949
G1 X82.678 Y152.212 E703.77069
G1 X113.188 Y182.722 E707.71479
G1 X112.300 Y182.722 E707.79599
G1 X82.678 Y153.100 E711.62524
G1 X82.678 Y153.988 E711.70645
G1 X111.412 Y182.722 E715.42086
G1 X110.523 Y182.722 E715.50206
G1 X82.678 Y154.877 E719.10163
G1 X82.678 Y155.765 E719.18283
G1 X109.635 Y182.722 E722.66755
G1 X108.747 Y182.722 E722.74876
G1 X82.678 Y156.653 E726.11864
G1 X82.678 Y157.542 E726.19985
G1 X107.858 Y182.722 E729.45488
G1 X106.970 Y182.722 E729.53609
G1 X82.678 Y158.430 E732.67628
G1 X82.678 Y159.319 E732.75748
G1 X106.081 Y182.722 E735.78283
G1 X105.193 Y182.722 E735.86404
G1 X82.678 Y160.207 E738.77455
G1 X82.678 Y161.095 E738.85575
G1 X104.305 Y182.722 E741.65142
G1 X103.416 Y182.722 E741.73262
G1 X82.678 Y161.984 E744.41344
G1 X82.678 Y162.872 E744.49465
G1 X102.528 Y182.722 E747.06063
G1 X101.639 Y182.722 E747.14183
G1 X82.678 Y163.761 E749.59297
G1 X82.678 Y164.649 E749.67417
G1 X100.751 Y182.722 E752.01047
G1 X99.863 Y182.722 E752.09167
G1 X82.678 Y165.537 E754.31312
G1 X82.678 Y166.426 E754.39433
G1 X98.974 Y182.722 E756.50093
G1 X98.086 Y182.722 E756.58214
G1 X82.678 Y167.314 E758.57390
G1 X82.678 Y168.202 E758.65511
G1 X97.198 Y182.722 E760.53203
G1 X96.309 Y182.722 E760.61323
G1 X82.678 Y169.091 E762.37531
G1 X82.678 Y169.979 E762.45652
G1 X95.421 Y182.722 E764.10375
G1 X94.532 Y182.722 E764.18496
G1 X82.678 Y170.868 E765.71735
G1 X82.678 Y171.756 E765.79855
G1 X93.644 Y182.722 E767.21610
G1 X92.756 Y182.722 E767.29731
G1 X82.678 Y172.644 E768.60001
G1 X82.678 Y173.533 E768.68122
G1 X91.867 Y182.722 E769.86908
G1 X90.979 Y182.722 E769.95029
G1 X82.678 Y174.421 E771.02330
G1 X82.678 Y175.310 E771.10451
G1 X90.090 Y182.722 E772.06269
G1 X89.202 Y182.722 E772.14389
G1 X82.678 Y176.198 E772.98723
G1 X82.678 Y177.086 E773.06843
G1 X88.314 Y182.722 E773.79692
G1 X87.425 Y182.722 E773.87813
G1 X82.678 Y177.975 E774.49178
G1 X82.678 Y178.863 E774.57298
G1 X86.537 Y182.722 E775.07179
G1 X85.649 Y182.722 E775.15299
G1 X82.678 Y179.751 E775.53695
G1 X82.678 Y180.640 E775.61816
G1 X84.760 Y182.722 E775.88728
G1 X83.872 Y182.722 E775.96848
G1 X82.678 Y181.528 E776.12276
G1 X82.678 Y182.417 E776.20397
G1 X82.983 Y182.722 E776.24340
G1 Z0.350 F7800.000
G1 E774.24340 F2400.00000
G92 E0
G1 X79.949 Y166.488 F7800.000
G1 E2.00000 F2400.00000
G1 X80.204 Y165.979 E2.05172 F1800.000
G1 X79.521 Y164.553 E2.19553
G1 X80.204 Y163.190 E2.33413
G1 X79.521 Y161.763 E2.47795
G1 X80.204 Y160.401 E2.61655
G1 X79.521 Y158.974 F7800.000
G1 X80.204 Y157.611 E2.75514 F1800.000
G1 X79.521 Y156.185 E2.89896
G1 X80.204 Y154.822 E3.03756
G1 X79.521 Y153.396 E3.18138
G1 X80.204 Y152.033 E3.31997
G1 X79.521 Y150.606 E3.46379
G1 X79.844 Y149.962 E3.52929
G1 E1.52929 F2400.00000
G92 E0
G1 X79.521 Y147.817 F7800.000
G1 E2.00000 F2400.00000
G1 X80.204 Y146.455 E2.13860 F1800.000
G1 X79.521 Y145.028 E2.28241
G1 X80.204 Y143.665 E2.42101
G1 Z0.550 F7800.000
G1 X80.100 Y144.000 F7800.000
G1 X80.100 Y143.700 E2.42992 F3600.000
G1 X79.625 Y143.700 E2.44402
G1 X79.625 Y147.350 E2.55240
G1 X80.100 Y147.350 E2.56650
G1 X80.100 Y144.000 E2.66597
G1 E0.66597 F2400.00000
G92 E0
G1 X80.100 Y157.350 F7800.000
G1 E2.00000 F2400.00000
G1 X80.100 Y152.150 E2.15439 F3600.000
G1 X79.625 Y152.150 E2.16850
G1 X79.625 Y157.350 E2.32289
G1 X80.100 Y157.350 E2.33699
G1 E0.33699 F2400.00000
G92 E0
G1 X80.100 Y166.000 F7800.000
G1 E2.00000 F2400.00000
G1 X80.100 Y162.150 E2.11431 F3600.000
G1 X79.625 Y162.150 E2.12841
G1 X79.625 Y166.300 E2.25163
G1 X80.100 Y166.300 E2.26574
G1 X80.100 Y166.000 E2.27464
G1 Z0.650 F7800.000
G1 E0.27464 F2400.00000
G92 E0
G1 X168.304 Y183.704 F7800.000
G1 E2.00000 F2400.00000
G1 X81.696 Y183.704 E6.52481 F3600.000
G1 X81.696 Y126.296 E9.52407
G1 X168.304 Y126.296 E14.04889
G1 X168.304 Y183.644 E17.04502
G1 X168.723 Y184.123 F7800.000
G1 X81.277 Y184.123 E21.61360 F3600.000
G1 X81.277 Y125.877 E24.65663
G1 X168.723 Y125.877 E29.22521
G1 X168.723 Y184.063 E32.26510
G1 X169.100 Y184.500 F7800.000
G1 X80.900 Y184.500 E35.95718 F1800.000
G1 X80.900 Y125.500 E38.42694
G1 X169.100 Y125.500 E42.11902
G1 X169.100 Y184.440 E44.58627
G1 X168.754 Y184.300 F7800.000
G1 X167.839 Y183.457 F7800.000
G1 X168.057 Y183.239 E44.60240 F1200.000
G1 X168.057 Y182.645 E44.63353
G1 X167.245 Y183.457 E44.69369
G1 X166.651 Y183.457 E44.72483
G1 X168.057 Y182.051 E44.82901
G1 X168.057 Y181.457 E44.86014
G1 X166.057 Y183.457 E45.00836
G1 X165.462 Y183.457 E45.03949
G1 X168.057 Y180.862 E45.23173
G1 X168.057 Y180.268 E45.26286
G1 X164.868 Y183.457 E45.49913
G1 X164.274 Y183.457 E45.53026
G1 X168.057 Y179.674 E45.81056
G1 X168.057 Y179.080 E45.84169
G1 X163.680 Y183.457 E46.16601
G1 X163.086 Y183.457 E46.19715
G1 X168.057 Y178.486 E46.56550
G1 X168.057 Y177.892 E46.59663
G1 X162.492 Y183.457 E47.00901
G1 X161.898 Y183.457 E47.04014
G1 X168.057 Y177.298 E47.49654
G1 X168.057 Y176.704 E47.52767
G1 X161.304 Y183.457 E48.02810
G1 X160.709 Y183.457 E48.05924
G1 X168.057 Y176.109 E48.60369
G1 X168.057 Y175.515 E48.63483
G1 X160.115 Y183.457 E49.22331
G1 X159.521 Y183.457 E49.25444
G1 X168.057 Y174.921 E49.88695
G1 X168.057 Y174.327 E49.91809
G1 X158.927 Y183.457 E50.59462
G1 X158.333 Y183.457 E50.62576
G1 X168.057 Y173.733 E51.34632
G1 X168.057 Y173.139 E51.37745
G1 X157.739 Y183.457 E52.14205
G1 X157.145 Y183.457 E52.17318
G1 X168.057 Y172.545 E52.98180
G1 X168.057 Y171.950 E53.01293
G1 X156.550 Y183.457 E53.86558
G1 X155.956 Y183.457 E53.89671
G1 X168.057 Y171.356 E54.79338
G1 X168.057 Y170.762 E54.82452
G1 X155.362 Y183.457 E55.76522
G1 X154.768 Y183.457 E55.79635
G1 X168.057 Y170.168 E56.78108
G1 X168.057 Y169.574 E56.81221
G1 X154.174 Y183.457 E57.84096
G1 X153.580 Y183.457 E57.87210
G1 X168.057 Y168.980 E58.94488
G1 X168.057 Y168.386 E58.97601
G1 X152.986 Y183.457 E60.09282
G1 X152.392 Y183.457 E60.12395
G1 X168.057 Y167.792 E61.28479
G1 X168.057 Y167.197 E61.31592
G1 X151.797 Y183.457 E62.52078
G1 X151.203 Y183.457 E62.55192
G1 X168.057 Y166.603 E63.80081
G1 X168.057 Y166.009 E63.83194
G1 X150.609 Y183.457 E65.12486
G1 X150.015 Y183.457 E65.15599
G1 X168.057 Y165.415 E66.49293
G1 X168.057 Y164.821 E66.52406
G1 X149.421 Y183.457 E67.90504
G1 X148.827 Y183.457 E67.93617
G1 X168.057 Y164.227 E69.36117
G1 X168.057 Y163.633 E69.39230
