; generated by Slic3r 1.2.9 on 2017-08-07 at 07:18:47

; external perimeters extrusion width = 0.40mm
; perimeters extrusion width = 0.48mm
; infill extrusion width = 0.48mm
; solid infill extrusion width = 0.48mm
; top infill extrusion width = 0.48mm
; support material extrusion width = 0.40mm

M107
M104 S200 ; set temperature
G28 ; home all axes
G1 Z5 F5000 ; lift nozzle

M109 S200 ; wait for temperature to be reached
G21 ; set units to millimeters
G90 ; use absolute coordinates
M82 ; use absolute distances for extrusion
G92 E0
G1 Z0.350 F7800.000
G1 E-2.00000 F2400.00000
G92 E0
G1 X106.168 Y133.774 F7800.000
G1 E2.00000 F2400.00000
G1 X108.320 Y132.981 E2.20854 F1800.000
G1 X109.500 Y132.875 E2.31625
G1 X140.500 Y132.875 E5.13507
G1 X142.759 Y133.272 E5.34361
G1 X144.747 Y134.415 E5.55215 F1800.000
G1 X146.226 Y136.168 E5.76070
G1 X147.019 Y138.320 E5.96924
G1 X147.125 Y139.500 E6.07695
G1 X147.125 Y170.500 E8.89576
G1 X146.728 Y172.759 E9.10431
G1 X145.585 Y174.747 E9.31285
G1 X143.832 Y176.226 E9.52139
G1 X141.680 Y177.019 E9.72993
G1 X140.500 Y177.125 E9.83764
G1 X109.500 Y177.125 E12.65646
G1 X107.241 Y176.728 E12.86500
G1 X105.253 Y175.585 E13.07354
G1 X103.774 Y173.832 E13.28209
G1 X102.981 Y171.680 E13.49063
G1 X102.875 Y170.500 E13.59834
G1 X102.875 Y139.500 E16.41715
G1 X103.272 Y137.241 E16.62570
G1 X104.415 Y135.253 E16.83424
G1 X106.122 Y133.813 E17.03733
G1 E15.03733 F2400.00000
G92 E0
G1 X132.922 Y159.911 F7800.000
G1 E2.00000 F2400.00000
G1 X131.804 Y160.723 E2.12563 F1800.000
G1 X130.542 Y161.285 E2.25125
G1 X129.191 Y161.572 E2.37688
G1 X127.809 Y161.572 E2.50250
G1 X126.458 Y161.285 E2.62813
G1 X125.196 Y160.723 E2.75375
G1 X124.078 Y159.911 E2.87938
G1 X123.154 Y158.884 E3.00501
G1 X122.463 Y157.688 E3.13063
G1 X122.036 Y156.374 E3.25626
G1 X121.999 Y156.025 E3.28818
G1 X121.891 Y155.000 E3.38188
G1 X122.036 Y153.626 E3.50751
G1 X122.463 Y152.312 E3.63313
G1 X123.154 Y151.116 E3.75876
G1 X124.078 Y150.089 E3.88439
G1 X125.196 Y149.277 E4.01001
G1 X126.458 Y148.715 E4.13564
G1 X127.809 Y148.428 E4.26126
G1 X129.191 Y148.428 E4.38689 F1800.000
G1 X130.542 Y148.715 E4.51251
G1 X131.804 Y149.277 E4.63814
G1 X132.922 Y150.089 E4.76377
G1 X133.846 Y151.116 E4.88939
G1 X134.537 Y152.312 E5.01502
G1 X134.964 Y153.626 E5.14064
G1 X135.109 Y155.000 E5.26627
G1 X134.964 Y156.374 E5.39189
G1 X134.537 Y157.688 E5.51752
G1 X133.846 Y158.884 E5.64315
G1 X132.962 Y159.867 E5.76332
G1 X132.502 Y159.444 F7800.000
G1 X131.490 Y160.179 E5.87700 F1800.000
G1 X130.348 Y160.688 E5.99068
G1 X129.125 Y160.947 E6.10436
G1 X127.875 Y160.947 E6.21804
G1 X126.652 Y160.688 E6.33172
G1 X125.510 Y160.179 E6.44540
G1 X124.498 Y159.444 E6.55909
G1 X123.662 Y158.515 E6.67277
G1 X123.037 Y157.432 E6.78645
G1 X122.650 Y156.243 E6.90013
G1 X122.621 Y155.960 E6.92608
G1 X122.520 Y155.000 E7.01381
G1 X122.650 Y153.757 E7.12749
G1 X123.037 Y152.568 E7.24117
G1 X123.662 Y151.485 E7.35486
G1 X124.498 Y150.556 E7.46854
G1 X125.510 Y149.821 E7.58222
G1 X126.652 Y149.312 E7.69590
G1 X127.875 Y149.053 E7.80958
G1 X129.125 Y149.053 E7.92326 F1800.000
G1 X130.348 Y149.312 E8.03694
G1 X131.490 Y149.821 E8.15063
G1 X132.502 Y150.556 E8.26431
G1 X133.338 Y151.485 E8.37799
G1 X133.963 Y152.568 E8.49167
G1 X134.350 Y153.757 E8.60535
G1 X134.480 Y155.000 E8.71903
G1 X134.350 Y156.243 E8.83272
G1 X133.963 Y157.432 E8.94640
G1 X133.338 Y158.515 E9.06008
G1 X132.542 Y159.400 E9.16830
G1 X132.081 Y158.977 F7800.000
G1 X131.176 Y159.635 E9.27004 F1800.000
G1 X130.154 Y160.090 E9.37178
G1 X129.059 Y160.323 E9.47352
G1 X127.941 Y160.323 E9.57525
G1 X126.846 Y160.090 E9.67699
G1 X125.824 Y159.635 E9.77873
G1 X124.919 Y158.977 E9.88047
G1 X124.170 Y158.146 E9.98220
G1 X123.611 Y157.177 E10.08394
G1 X123.265 Y156.113 E10.18568
G1 X123.148 Y155.000 E10.28741
G1 X123.265 Y153.887 E10.38915
G1 X123.611 Y152.823 E10.49089
G1 X124.170 Y151.854 E10.59263
G1 X124.919 Y151.023 E10.69436
G1 X125.824 Y150.365 E10.79610
G1 X126.846 Y149.910 E10.89784
G1 X127.941 Y149.677 E10.99958
G1 X129.059 Y149.677 E11.10131 F1800.000
G1 X130.154 Y149.910 E11.20305
G1 X131.176 Y150.365 E11.30479
G1 X132.081 Y151.023 E11.40652
G1 X132.830 Y151.854 E11.50826
G1 X133.389 Y152.823 E11.61000
G1 X133.735 Y153.887 E11.71174
G1 X133.852 Y155.000 E11.81347
G1 X133.735 Y156.113 E11.91521
G1 X133.389 Y157.177 E12.01695
G1 X132.830 Y158.146 E12.11869
G1 X132.121 Y158.933 E12.21497
G1 X132.151 Y159.371 F7800.000
G1 X138.900 Y168.900 F7800.000
G1 X111.100 Y168.900 E14.74285 F1800.000
G1 X111.100 Y141.100 E17.27073
G1 X138.900 Y141.100 E19.79861
G1 X138.900 Y168.840 E22.32104
G1 X139.525 Y169.525 F7800.000
G1 X110.475 Y169.525 E24.96257 F1800.000
G1 X110.475 Y140.475 E27.60409
G1 X139.525 Y140.475 E30.24561
G1 X139.525 Y169.465 E32.88168
G1 X140.150 Y170.150 F7800.000
G1 X109.850 Y170.150 E35.63685 F1800.000
G1 X109.850 Y139.850 E38.39202
G1 X140.150 Y139.850 E41.14718
G1 X140.150 Y170.090 E43.89689
G1 X139.804 Y169.950 F7800.000
G1 X131.391 Y168.522 F7800.000
G1 X111.478 Y148.609 E46.47946 F1800.000
G1 X111.478 Y149.500 E46.56119
G1 X130.500 Y168.522 E49.02817
G1 X129.609 Y168.522 E49.10990
G1 X111.478 Y150.391 E51.46129
G1 X111.478 Y151.282 E51.54302
G1 X128.718 Y168.522 E53.77882
G1 X127.826 Y168.522 E53.86055
G1 X111.478 Y152.174 E55.98075
G1 X111.478 Y153.065 E56.06249
G1 X126.935 Y168.522 E58.06710
G1 X126.044 Y168.522 E58.14884
G1 X111.478 Y153.956 E60.03786
G1 X111.478 Y154.847 E60.11959
G1 X125.153 Y168.522 E61.89302
G1 X124.261 Y168.522 E61.97476
G1 X111.478 Y155.739 E63.63260
G1 X111.478 Y156.630 E63.71433
G1 X123.370 Y168.522 E65.25658
G1 X122.479 Y168.522 E65.33832
G1 X111.478 Y157.521 E66.76497
G1 X111.478 Y158.413 E66.84671
G1 X121.587 Y168.522 E68.15777
G1 X120.696 Y168.522 E68.23951
G1 X111.478 Y159.304 E69.43498
G1 X111.478 Y160.195 E69.51672
G1 X119.805 Y168.522 E70.59660
G1 X118.914 Y168.522 E70.67834
G1 X111.478 Y161.086 E71.64263
G1 X111.478 Y161.978 E71.72437
G1 X118.022 Y168.522 E72.57307
G1 X117.131 Y168.522 E72.65481
G1 X111.478 Y162.869 E73.38792
G1 X111.478 Y163.760 E73.46965
G1 X116.240 Y168.522 E74.08718
G1 X115.349 Y168.522 E74.16891
G1 X111.478 Y164.651 E74.67084
G1 X111.478 Y165.543 E74.75258
G1 X114.457 Y168.522 E75.13892
G1 X113.566 Y168.522 E75.22065
G1 X111.478 Y166.434 E75.49140
G1 X111.478 Y167.325 E75.57313
G1 X112.675 Y168.522 E75.72829
G1 X111.783 Y168.522 E75.81003
G1 X111.478 Y168.217 E75.84960
G1 X122.584 Y158.823 F7800.000
G1 X111.478 Y147.717 E77.28986 F1800.000
G1 X111.478 Y146.826 E77.37159
G1 X121.858 Y157.206 E78.71777
G1 X121.608 Y156.064 E78.82493
G1 X111.478 Y145.935 E80.13866
G1 X111.478 Y145.043 E80.22039
G1 X121.515 Y155.081 E81.52212
G1 X121.600 Y154.274 E81.59649
G1 X111.478 Y144.152 E82.90922
G1 X111.478 Y143.261 E82.99096
G1 X121.716 Y153.498 E84.31864
G1 X121.934 Y152.825 E84.38350
G1 X111.478 Y142.370 E85.73953
G1 X111.498 Y141.498 E85.81946
G1 X122.166 Y152.166 E87.20296
G1 X122.492 Y151.601 E87.26279
G1 X112.370 Y141.478 E88.57561
G1 X113.261 Y141.478 E88.65734
G1 X122.818 Y151.036 E89.89688
G1 X123.225 Y150.552 E89.95489
G1 X114.152 Y141.478 E91.13162
G1 X115.043 Y141.478 E91.21336
G1 X123.648 Y150.083 E92.32926
G1 X124.115 Y149.659 E92.38713
G1 X115.935 Y141.478 E93.44807
G1 X116.826 Y141.478 E93.52981
G1 X124.631 Y149.284 E94.54211
G1 X125.163 Y148.924 E94.60096
G1 X117.717 Y141.478 E95.56655
G1 X118.609 Y141.478 E95.64829
G1 X125.779 Y148.649 E96.57827
G1 X126.396 Y148.374 E96.64018
G1 X119.500 Y141.478 E97.53455
G1 X120.391 Y141.478 E97.61629
G1 X127.124 Y148.211 E98.48951
G1 X127.859 Y148.055 E98.55842
G1 X121.282 Y141.478 E99.41138
G1 X122.174 Y141.478 E99.49312
G1 X128.744 Y148.049 E100.34528
G1 X129.705 Y148.119 E100.43365
G1 X123.065 Y141.478 E101.29486
G1 X123.956 Y141.478 E101.37659
G1 X130.839 Y148.361 E102.26921
G1 X132.704 Y149.335 F7800.000
G1 X124.847 Y141.478 E103.28814 F1800.000
G1 X125.739 Y141.478 E103.36988
G1 X138.522 Y154.261 E105.02772
G1 X138.522 Y153.370 E105.10946
G1 X126.630 Y141.478 E106.65171
G1 X127.521 Y141.478 E106.73344
G1 X138.522 Y152.479 E108.16010
G1 X138.522 Y151.587 E108.24184
G1 X128.413 Y141.478 E109.55291
G1 X129.304 Y141.478 E109.63465
G1 X138.522 Y150.696 E110.83013
G1 X138.522 Y149.805 E110.91186
G1 X130.195 Y141.478 E111.99175
G1 X131.086 Y141.478 E112.07348
G1 X138.522 Y148.914 E113.03778
G1 X138.522 Y148.022 E113.11952
G1 X131.978 Y141.478 E113.96823
G1 X132.869 Y141.478 E114.04996
G1 X138.522 Y147.131 E114.78308
G1 X138.522 Y146.240 E114.86481
G1 X133.760 Y141.478 E115.48234
G1 X134.651 Y141.478 E115.56407
G1 X138.522 Y145.349 E116.06601
G1 X138.522 Y144.457 E116.14774
G1 X135.543 Y141.478 E116.53409
G1 X136.434 Y141.478 E116.61582
G1 X138.522 Y143.566 E116.88658
G1 X138.522 Y142.675 E116.96831
G1 X137.325 Y141.478 E117.12347
G1 X138.217 Y141.478 E117.20521
G1 X138.522 Y141.783 E117.24478
G1 X134.239 Y150.869 F7800.000
G1 X138.522 Y155.153 E117.80026 F1800.000
G1 X135.079 Y152.601 F7800.000
G1 X138.522 Y156.044 E118.24671 F1800.000
G1 X138.522 Y156.935 E118.32845
G1 X135.377 Y153.790 E118.73631
G1 X135.481 Y154.786 E118.82815
G1 X138.522 Y157.826 E119.22244
G1 X138.522 Y158.718 E119.30418
G1 X135.412 Y155.608 E119.70745
G1 X135.316 Y156.404 E119.78093
G1 X138.522 Y159.609 E120.19663
G1 X138.522 Y160.500 E120.27837
G1 X135.098 Y157.076 E120.72242
G1 X134.879 Y157.749 E120.78728
G1 X138.522 Y161.391 E121.25968
G1 X138.522 Y162.283 E121.34141
G1 X134.555 Y158.317 E121.85579
G1 X134.229 Y158.882 E121.91563
G1 X138.522 Y163.174 E122.47232
G1 X138.522 Y164.065 E122.55406
G1 X133.836 Y159.380 E123.16172
G1 X133.414 Y159.849 E123.21959
G1 X138.522 Y164.957 E123.88202
G1 X138.522 Y165.848 E123.96375
G1 X132.960 Y160.286 E124.68503
G1 X132.444 Y160.661 E124.74355
G1 X138.522 Y166.739 E125.53178
G1 X138.522 Y167.630 E125.61351
G1 X131.928 Y161.036 E126.46872
G1 X131.311 Y161.311 E126.53063
G1 X138.502 Y168.502 E127.46322
G1 X137.630 Y168.522 E127.54314
G1 X130.694 Y161.585 E128.44271
G1 X129.983 Y161.766 E128.50997
G1 X136.739 Y168.522 E129.38615
G1 X135.848 Y168.522 E129.46789
G1 X129.248 Y161.922 E130.32381
G1 X128.386 Y161.951 E130.40293
G1 X134.957 Y168.522 E131.25510
G1 X134.065 Y168.522 E131.33683
G1 X127.460 Y161.916 E132.19349
G1 X126.328 Y161.676 E132.29961
G1 X133.174 Y168.522 E133.18747
G1 X132.283 Y168.522 E133.26920
G1 X124.772 Y161.011 E134.24328
G1 Z0.350 F7800.000
G1 Z0.650 F7800.000
G1 X132.429 Y159.523 F7800.000
G1 X131.501 Y160.198 E134.30323 F900.000
G1 X130.355 Y160.708 E134.36878
G1 X129.127 Y160.969 E134.43433
G1 X127.873 Y160.969 E134.49988
G1 X126.645 Y160.708 E134.56543
G1 X125.499 Y160.198 E134.63098
G1 X124.484 Y159.460 E134.69653
G1 X123.645 Y158.528 E134.76208
G1 X123.017 Y157.441 E134.82763
G1 X122.630 Y156.248 E134.89318
G1 X122.498 Y155.000 E134.95873
G1 X122.630 Y153.752 E135.02428
G1 X123.017 Y152.559 E135.08983
G1 X123.645 Y151.472 E135.15538
G1 X124.484 Y150.540 E135.22093
G1 X125.499 Y149.802 E135.28648
G1 X126.645 Y149.292 E135.35204
G1 X127.873 Y149.031 E135.41759
G1 X129.127 Y149.031 E135.48314 F900.000
G1 X130.355 Y149.292 E135.54869
G1 X131.501 Y149.802 E135.61424
G1 X132.516 Y150.540 E135.67979
G1 X133.355 Y151.472 E135.74534
G1 X133.983 Y152.559 E135.81089
G1 X134.370 Y153.752 E135.87644
G1 X134.502 Y155.000 E135.94199
G1 X134.370 Y156.248 E136.00754
G1 X133.983 Y157.441 E136.07309
G1 X133.355 Y158.528 E136.13864
G1 X132.478 Y159.488 E136.20661
G1 X132.183 Y159.184 F7800.000
G1 X131.290 Y159.833 E136.26426 F900.000
G1 X130.224 Y160.307 E136.32521
G1 X129.083 Y160.550 E136.38616
G1 X127.917 Y160.550 E136.44711
G1 X126.776 Y160.307 E136.50806
G1 X125.710 Y159.833 E136.56901
G1 X124.766 Y159.147 E136.62996
G1 X123.985 Y158.280 E136.69091
G1 X123.402 Y157.270 E136.75186
G1 X123.042 Y156.160 E136.81281
G1 X122.920 Y155.000 E136.87376
G1 X123.042 Y153.840 E136.93471
G1 X123.402 Y152.730 E136.99566
G1 X123.985 Y151.720 E137.05661
G1 X124.766 Y150.853 E137.11756
G1 X125.710 Y150.167 E137.17851
G1 X126.776 Y149.693 E137.23946
G1 X127.917 Y149.450 E137.30041
G1 X129.083 Y149.450 E137.36136 F900.000
G1 X130.224 Y149.693 E137.42231
G1 X131.290 Y150.167 E137.48326
G1 X132.234 Y150.853 E137.54421
G1 X133.015 Y151.720 E137.60516
G1 X133.598 Y152.730 E137.66611
G1 X133.958 Y153.840 E137.72706
G1 X134.080 Y155.000 E137.78802
G1 X133.958 Y156.160 E137.84897
G1 X133.598 Y157.270 E137.90992
G1 X133.015 Y158.280 E137.97087
G1 X132.231 Y159.149 E138.03199
G1 X131.961 Y158.879 F7800.000
G1 X131.101 Y159.504 E138.07651 F900.000
G1 X130.107 Y159.947 E138.12203
G1 X129.044 Y160.173 E138.16754
G1 X127.956 Y160.173 E138.21306
G1 X126.893 Y159.947 E138.25857
G1 X125.899 Y159.504 E138.30409
G1 X125.020 Y158.865 E138.34961
G1 X124.292 Y158.057 E138.39512
G1 X123.749 Y157.115 E138.44064
G1 X123.413 Y156.081 E138.48615
G1 X123.299 Y155.000 E138.53167
G1 X123.413 Y153.919 E138.57719
G1 X123.749 Y152.885 E138.62270
G1 X124.292 Y151.943 E138.66822
G1 X125.020 Y151.135 E138.71373
G1 X125.899 Y150.496 E138.75925
G1 X126.893 Y150.053 E138.80476
G1 X127.956 Y149.827 E138.85028
G1 X129.044 Y149.827 E138.89580 F900.000
G1 X130.107 Y150.053 E138.94131
G1 X131.101 Y150.496 E138.98683
G1 X131.980 Y151.135 E139.03234
G1 X132.708 Y151.943 E139.07786
G1 X133.251 Y152.885 E139.12337
G1 X133.587 Y153.919 E139.16889
G1 X133.701 Y155.000 E139.21441
G1 X133.587 Y156.081 E139.25992
G1 X133.251 Y157.115 E139.30544
G1 X132.708 Y158.057 E139.35095
G1 X132.005 Y158.838 E139.39495
G1 X132.030 Y159.273 F7800.000
G1 X139.504 Y169.504 F7800.000
G1 X110.496 Y169.504 E140.91046 F3600.000
G1 X110.496 Y140.496 E142.42596
G1 X139.504 Y140.496 E143.94147
G1 X139.504 Y169.444 E145.45384
G1 X139.923 Y169.923 F7800.000
G1 X110.077 Y169.923 E147.01312 F3600.000
G1 X110.077 Y140.077 E148.57239
G1 X139.923 Y140.077 E150.13167
G1 X139.923 Y169.863 E151.68781
G1 X140.300 Y170.300 F7800.000
G1 X109.700 Y170.300 E152.96873 F1800.000
G1 X109.700 Y139.700 E154.24966
G1 X140.300 Y139.700 E155.53058
G1 X140.300 Y170.240 E156.80900
G1 X139.954 Y170.100 F7800.000
G1 X139.039 Y169.257 F7800.000
G1 X139.257 Y169.039 E156.82517 F1200.000
G1 X139.257 Y168.443 E156.85647
G1 X138.443 Y169.257 E156.91691
G1 X137.848 Y169.257 E156.94820
G1 X139.257 Y167.848 E157.05290
G1 X139.257 Y167.252 E157.08419
G1 X137.252 Y169.257 E157.23315
G1 X136.656 Y169.257 E157.26445
G1 X139.257 Y166.656 E157.45766
G1 X139.257 Y166.060 E157.48896
G1 X136.060 Y169.257 E157.72643
G1 X135.465 Y169.257 E157.75773
G1 X139.257 Y165.465 E158.03946
G1 X139.257 Y164.869 E158.07076
G1 X134.869 Y169.257 E158.39675
G1 X134.273 Y169.257 E158.42805
G1 X139.257 Y164.273 E158.79830
G1 X139.257 Y163.678 E158.82960
G1 X133.678 Y169.257 E159.24412
G1 X133.082 Y169.257 E159.27541
G1 X139.257 Y163.082 E159.73419
G1 X139.257 Y162.486 E159.76548
G1 X132.486 Y169.257 E160.26852
G1 X131.891 Y169.257 E160.29981
G1 X139.257 Y161.891 E160.84711
G1 X139.257 Y161.295 E160.87840
G1 X131.295 Y169.257 E161.46996
G1 X130.699 Y169.257 E161.50125
G1 X139.257 Y160.699 E162.13706
G1 X139.257 Y160.104 E162.16836
G1 X130.104 Y169.257 E162.84843
G1 X129.508 Y169.257 E162.87973
G1 X139.257 Y159.508 E163.60406
G1 X139.257 Y158.912 E163.63536
G1 X128.912 Y169.257 E164.40395
G1 X128.316 Y169.257 E164.43525
G1 X139.257 Y158.316 E165.24810
G1 X139.257 Y157.721 E165.27940
G1 X127.721 Y169.257 E166.13651
G1 X127.125 Y169.257 E166.16781
G1 X139.257 Y157.125 E167.06918
G1 X139.257 Y156.529 E167.10047
G1 X126.529 Y169.257 E168.04611
G1 X125.934 Y169.257 E168.07740
G1 X139.257 Y155.934 E169.06729
G1 X139.257 Y155.338 E169.09859
G1 X125.338 Y169.257 E170.13274
G1 X124.742 Y169.257 E170.16404
G1 X139.257 Y154.742 E171.24245
G1 X139.257 Y154.147 E171.27374
G1 X124.147 Y169.257 E172.39641
G1 X123.551 Y169.257 E172.42771
G1 X139.257 Y153.551 E173.59464
G1 X139.257 Y152.955 E173.62594
G1 X133.735 Y158.476 E174.03616
G1 X134.325 Y157.291 F7800.000
G1 X139.257 Y152.359 E174.40260 F1200.000
G1 X139.257 Y151.764 E174.43390
G1 X134.611 Y156.409 E174.77904
G1 X134.682 Y155.743 E174.81424
G1 X139.257 Y151.168 E175.15414
G1 X139.257 Y150.572 E175.18544
G1 X134.750 Y155.079 E175.52031
