; generated by Slic3r 1.2.9 on 2017-08-07 at 06:26:58

; external perimeters extrusion width = 0.40mm
; perimeters extrusion width = 0.48mm
; infill extrusion width = 0.48mm
; solid infill extrusion width = 0.48mm
; top infill extrusion width = 0.48mm
; support material extrusion width = 0.40mm

M107
M104 S200 ; set temperature
G28 ; home all axes
G1 Z5 F5000 ; lift nozzle

M109 S200 ; wait for temperature to be reached
G21 ; set units to millimeters
G90 ; use absolute coordinates
M82 ; use absolute distances for extrusion
G92 E0
G1 Z0.350 F7800.000
G1 E-2.00000 F2400.00000
G92 E0
G1 X113.411 Y141.094 F7800.000
G1 E2.00000 F2400.00000
G1 X115.356 Y139.681 E2.21862 F1800.000
G1 X116.555 Y138.989 E2.34454
G1 X118.752 Y138.011 E2.56318
G1 X120.069 Y137.583 E2.68909
G1 X122.420 Y137.083 E2.90770
G1 X123.798 Y136.938 E3.03365
G1 X126.202 Y136.938 E3.25225
G1 X127.579 Y137.083 E3.37818
G1 X129.931 Y137.583 E3.59681 F1800.000
G1 X131.248 Y138.011 E3.72272
G1 X133.444 Y138.989 E3.94133
G1 X134.644 Y139.681 E4.06728
G1 X136.589 Y141.094 E4.28589
G1 X137.618 Y142.021 E4.41182
G1 X139.227 Y143.808 E4.63043
G1 X140.041 Y144.928 E4.75636
G1 X141.243 Y147.010 E4.97498
G1 X141.806 Y148.275 E5.10092
G1 X142.549 Y150.562 E5.31953
G1 X142.837 Y151.917 E5.44546
G1 X143.089 Y154.308 E5.66408
G1 X143.089 Y155.692 E5.79000
G1 X142.837 Y158.083 E6.00861
G1 X142.549 Y159.438 E6.13454
G1 X141.806 Y161.725 E6.35315
G1 X141.243 Y162.990 E6.47910
G1 X140.041 Y165.072 E6.69771
G1 X139.227 Y166.192 E6.82363
G1 X137.640 Y167.955 E7.03930
G1 X136.589 Y168.906 E7.16816
G1 X134.644 Y170.319 E7.38677
G1 X133.444 Y171.011 E7.51272
G1 X131.248 Y171.989 E7.73133
G1 X129.931 Y172.417 E7.85723
G1 X127.580 Y172.917 E8.07585
G1 X126.202 Y173.062 E8.20179
G1 X123.798 Y173.062 E8.42040
G1 X122.420 Y172.917 E8.54635
G1 X120.069 Y172.417 E8.76496
G1 X118.752 Y171.989 E8.89086
G1 X116.556 Y171.011 E9.10948
G1 X115.356 Y170.319 E9.23541
G1 X113.411 Y168.906 E9.45403
G1 X112.382 Y167.979 E9.57997
G1 X110.773 Y166.192 E9.79858
G1 X109.959 Y165.072 E9.92451
G1 X108.757 Y162.990 E10.14312
G1 X108.194 Y161.725 E10.26907
G1 X107.451 Y159.438 E10.48768
G1 X107.163 Y158.083 E10.61361
G1 X106.911 Y155.692 E10.83225
G1 X106.911 Y154.308 E10.95815
G1 X107.163 Y151.916 E11.17678
G1 X107.451 Y150.562 E11.30269
G1 X108.184 Y148.306 E11.51835
G1 X108.757 Y147.010 E11.64723
G1 X109.959 Y144.928 E11.86586
G1 X110.773 Y143.808 E11.99177
G1 X112.382 Y142.021 E12.21038
G1 X113.366 Y141.134 E12.33084
G1 E10.33084 F2400.00000
G92 E0
G1 X131.619 Y162.351 F7800.000
G1 E2.00000 F2400.00000
G1 X129.946 Y163.566 E2.18803 F1800.000
G1 X128.057 Y164.407 E2.37606
G1 X126.034 Y164.837 E2.56409
G1 X123.966 Y164.837 E2.75212
G1 X121.943 Y164.407 E2.94015
G1 X120.054 Y163.566 E3.12818
G1 X118.381 Y162.351 E3.31621
G1 X116.998 Y160.814 E3.50424
G1 X115.964 Y159.023 E3.69227
G1 X115.325 Y157.057 E3.88030
G1 X115.109 Y155.000 E4.06833
G1 X115.325 Y152.943 E4.25636
G1 X115.964 Y150.977 E4.44439
G1 X116.998 Y149.186 E4.63242
G1 X118.381 Y147.649 E4.82045
G1 X120.054 Y146.434 E5.00848
G1 X121.943 Y145.593 E5.19651
G1 X123.964 Y145.163 E5.38434
G1 X126.063 Y145.169 E5.57525
G1 X128.057 Y145.593 E5.76054 F1800.000
G1 X129.946 Y146.434 E5.94857
G1 X131.619 Y147.649 E6.13660
G1 X133.002 Y149.186 E6.32463
G1 X134.036 Y150.977 E6.51266
G1 X134.675 Y152.943 E6.70069
G1 X134.891 Y155.000 E6.88872
G1 X134.675 Y157.057 E7.07675
G1 X134.036 Y159.023 E7.26478
G1 X133.002 Y160.814 E7.45281
G1 X131.659 Y162.306 E7.63539
G1 X132.083 Y162.769 F7800.000
G1 X132.039 Y162.818 E7.64136 F1800.000
G1 X130.260 Y164.110 E7.84133
G1 X128.251 Y165.005 E8.04131
G1 X126.100 Y165.462 E8.24128
G1 X123.900 Y165.462 E8.44126
G1 X121.749 Y165.005 E8.64123
G1 X119.740 Y164.110 E8.84121
G1 X117.961 Y162.818 E9.04118
G1 X116.489 Y161.183 E9.24116
G1 X115.390 Y159.279 E9.44113
G1 X114.710 Y157.187 E9.64110
G1 X114.480 Y155.000 E9.84108
G1 X114.710 Y152.813 E10.04105
G1 X115.390 Y150.721 E10.24103
G1 X116.489 Y148.817 E10.44100
G1 X117.961 Y147.182 E10.64098
G1 X119.740 Y145.890 E10.84095
G1 X121.749 Y144.995 E11.04093
G1 X123.899 Y144.538 E11.24078
G1 X126.130 Y144.544 E11.44363
G1 X128.251 Y144.995 E11.64079 F1800.000
G1 X130.260 Y145.890 E11.84076
G1 X132.039 Y147.182 E12.04073
G1 X133.511 Y148.817 E12.24071
G1 X134.610 Y150.721 E12.44069
G1 X135.290 Y152.813 E12.64066
G1 X135.520 Y155.000 E12.84063
G1 X135.290 Y157.187 E13.04061
G1 X134.610 Y159.279 E13.24058
G1 X133.511 Y161.183 E13.44056
G1 X132.123 Y162.724 E13.62910
G1 X132.547 Y163.187 F7800.000
G1 X132.460 Y163.285 E13.64105 F1800.000
G1 X130.574 Y164.655 E13.85297
G1 X128.445 Y165.602 E14.06489
G1 X126.165 Y166.087 E14.27680
G1 X123.835 Y166.087 E14.48872
G1 X121.555 Y165.602 E14.70064
G1 X119.426 Y164.655 E14.91256
G1 X117.540 Y163.285 E15.12448
G1 X115.981 Y161.553 E15.33640
G1 X114.816 Y159.534 E15.54832
G1 X114.096 Y157.318 E15.76024
G1 X113.852 Y155.000 E15.97215
G1 X114.096 Y152.682 E16.18407
G1 X114.816 Y150.466 E16.39599
G1 X115.981 Y148.447 E16.60791
G1 X117.540 Y146.715 E16.81983
G1 X119.426 Y145.345 E17.03175
G1 X121.555 Y144.398 E17.24367
G1 X123.834 Y143.913 E17.45554
G1 X126.196 Y143.920 E17.67034
G1 X128.445 Y144.398 E17.87936 F1800.000
G1 X130.574 Y145.345 E18.09128
G1 X132.460 Y146.715 E18.30320
G1 X134.019 Y148.447 E18.51512
G1 X135.184 Y150.466 E18.72704
G1 X135.904 Y152.682 E18.93895
G1 X136.148 Y155.000 E19.15087
G1 X135.904 Y157.318 E19.36279
G1 X135.184 Y159.534 E19.57471
G1 X134.019 Y161.553 E19.78663
G1 X132.588 Y163.142 E19.98115
G1 X132.419 Y163.160 F7800.000
G1 X122.773 Y164.165 F7800.000
G1 X115.825 Y157.217 E20.90260 F1800.000
G1 X115.620 Y156.101 E21.00908
G1 X123.930 Y164.411 E22.11126
G1 X124.889 Y164.459 E22.20126
G1 X115.513 Y155.082 E23.44477
G1 X115.558 Y154.217 E23.52605
G1 X125.800 Y164.459 E24.88434
G1 X126.607 Y164.354 E24.96060
G1 X115.645 Y153.392 E26.41433
G1 X115.790 Y152.625 E26.48749
G1 X127.358 Y164.194 E28.02169
G1 X128.097 Y164.021 E28.09284
G1 X116.013 Y151.937 E29.69538
G1 X116.237 Y151.250 E29.76321
G1 X128.728 Y163.740 E31.41975
G1 X129.358 Y163.460 E31.48448
G1 X116.539 Y150.640 E33.18458
G1 X116.873 Y150.063 E33.24714
G1 X129.962 Y163.152 E34.98300
G1 X130.490 Y162.768 E35.04419
G1 X117.206 Y149.485 E36.80582
G1 X117.616 Y148.983 E36.86655
G1 X131.017 Y162.385 E38.64383
G1 X131.512 Y161.968 E38.70449
G1 X118.048 Y148.504 E40.49012
G1 X118.488 Y148.032 E40.55059
G1 X131.952 Y161.496 E42.33622
G1 X132.384 Y161.017 E42.39674
G1 X118.982 Y147.615 E44.17402
G1 X119.510 Y147.232 E44.23521
G1 X132.794 Y160.515 E45.99683
G1 X133.127 Y159.937 E46.05940
G1 X120.038 Y146.848 E47.79526
G1 X120.642 Y146.540 E47.85878
G1 X133.461 Y159.360 E49.55888
G1 X133.763 Y158.750 E49.62265
G1 X121.272 Y146.260 E51.27919
G1 X121.903 Y145.979 E51.34392
G1 X133.987 Y158.063 E52.94647
G1 X134.210 Y157.375 E53.01429
G1 X122.642 Y145.806 E54.54850
G1 X123.393 Y145.646 E54.62056
G1 X134.355 Y156.608 E56.07430
G1 X134.442 Y155.783 E56.15206
G1 X124.201 Y145.543 E57.51016
G1 X125.115 Y145.545 E57.59586
G1 X134.487 Y154.918 E58.83883
G1 X134.380 Y153.899 E58.93487
G1 X126.069 Y145.589 E60.03705
G1 X127.227 Y145.835 E60.14802
G1 X134.175 Y152.783 E61.06948
G1 X133.736 Y151.433 F7800.000
G1 X128.644 Y146.340 E61.74483 F1800.000
G1 X131.038 Y147.823 F7800.000
G1 X131.664 Y148.449 E61.82782 F1800.000
G1 X121.356 Y163.660 F7800.000
G1 X116.264 Y158.567 E62.50317 F1800.000
G1 X118.336 Y161.551 F7800.000
G1 X118.962 Y162.177 E62.58613 F1800.000
G1 Z0.350 F7800.000
G1 Z0.650 F7800.000
G1 X132.067 Y162.755 F7800.000
G1 X132.025 Y162.802 E62.58944 F3600.000
G1 X130.249 Y164.092 E62.70411
G1 X128.244 Y164.985 E62.81877
G1 X126.097 Y165.441 E62.93344
G1 X123.903 Y165.441 E63.04810
G1 X121.756 Y164.985 E63.16277
G1 X119.751 Y164.092 E63.27743
G1 X117.975 Y162.802 E63.39210
G1 X116.507 Y161.171 E63.50676
G1 X115.409 Y159.270 E63.62143
G1 X114.731 Y157.183 E63.73609
G1 X114.502 Y155.000 E63.85076
G1 X114.731 Y152.817 E63.96542
G1 X115.409 Y150.730 E64.08009
G1 X116.507 Y148.829 E64.19475
G1 X117.975 Y147.198 E64.30942
G1 X119.751 Y145.908 E64.42408
G1 X121.756 Y145.015 E64.53875
G1 X123.903 Y144.559 E64.65341
G1 X126.097 Y144.559 E64.76808
G1 X128.244 Y145.015 E64.88274
G1 X130.249 Y145.908 E64.99741 F3600.000
G1 X132.025 Y147.198 E65.11207
G1 X133.493 Y148.829 E65.22674
G1 X134.591 Y150.730 E65.34140
G1 X135.269 Y152.817 E65.45607
G1 X135.498 Y155.000 E65.57073
G1 X135.269 Y157.183 E65.68540
G1 X134.591 Y159.270 E65.80006
G1 X133.493 Y161.171 E65.91473
G1 X132.107 Y162.710 E66.02294
G1 X132.379 Y163.035 F7800.000
G1 X132.307 Y163.115 E66.02856 F3600.000
G1 X130.460 Y164.457 E66.14782
G1 X128.374 Y165.385 E66.26709
G1 X126.141 Y165.860 E66.38635
G1 X123.859 Y165.860 E66.50562
G1 X121.626 Y165.385 E66.62488
G1 X119.540 Y164.457 E66.74415
G1 X117.693 Y163.115 E66.86341
G1 X116.166 Y161.418 E66.98268
G1 X115.024 Y159.441 E67.10195
G1 X114.319 Y157.270 E67.22121
G1 X114.080 Y155.000 E67.34048
G1 X114.319 Y152.730 E67.45974
G1 X115.024 Y150.559 E67.57901
G1 X116.166 Y148.582 E67.69827
G1 X117.693 Y146.885 E67.81754
G1 X119.540 Y145.543 E67.93680
G1 X121.626 Y144.615 E68.05607
G1 X123.859 Y144.140 E68.17533
G1 X126.173 Y144.147 E68.29622
G1 X128.374 Y144.615 E68.41383 F3600.000
G1 X130.460 Y145.543 E68.53309
G1 X132.307 Y146.885 E68.65236
G1 X133.834 Y148.582 E68.77162
G1 X134.976 Y150.559 E68.89089
G1 X135.681 Y152.730 E69.01015
G1 X135.920 Y155.000 E69.12942
G1 X135.681 Y157.270 E69.24868
G1 X134.976 Y159.441 E69.36795
G1 X133.834 Y161.418 E69.48721
G1 X132.419 Y162.990 E69.59773
G1 X132.659 Y163.287 F7800.000
G1 X132.560 Y163.397 E69.60389 F1800.000
G1 X130.649 Y164.785 E69.70277
G1 X128.492 Y165.746 E69.80165
G1 X126.181 Y166.237 E69.90052
G1 X123.819 Y166.237 E69.99940
G1 X121.508 Y165.746 E70.09828
G1 X119.351 Y164.785 E70.19716
G1 X117.440 Y163.397 E70.29604
G1 X115.859 Y161.641 E70.39492
G1 X114.678 Y159.596 E70.49380
G1 X113.948 Y157.349 E70.59268
G1 X113.701 Y155.000 E70.69155
G1 X113.948 Y152.651 E70.79043
G1 X114.678 Y150.404 E70.88931
G1 X115.859 Y148.359 E70.98819
G1 X117.440 Y146.603 E71.08707
G1 X119.351 Y145.215 E71.18595
G1 X121.508 Y144.254 E71.28483
G1 X123.819 Y143.763 E71.38371
G1 X126.181 Y143.763 E71.48258
G1 X126.251 Y143.778 E71.48558
G1 X128.492 Y144.254 E71.58146 F1800.000
G1 X130.649 Y145.215 E71.68034
G1 X132.560 Y146.603 E71.77922
G1 X134.141 Y148.359 E71.87810
G1 X135.322 Y150.404 E71.97698
G1 X136.052 Y152.651 E72.07586
G1 X136.299 Y155.000 E72.17474
G1 X136.052 Y157.349 E72.27361
G1 X135.322 Y159.596 E72.37249
G1 X134.141 Y161.641 E72.47137
G1 X132.699 Y163.243 E72.56158
G1 X132.515 Y163.257 F7800.000
G1 X132.144 Y162.177 F7800.000
G1 X131.606 Y162.715 E72.60165 F1200.000
G1 X129.712 Y164.013 F7800.000
G1 X133.948 Y159.776 E72.91694 F1200.000
G1 X128.636 Y164.491 F7800.000
G1 X134.509 Y158.618 E73.35404 F1200.000
G1 X134.796 Y157.735 E73.40295
G1 X127.705 Y164.825 E73.93069
G1 X126.948 Y164.987 E73.97146
G1 X135.041 Y156.893 E74.57381
G1 X135.111 Y156.226 E74.60910
G1 X126.190 Y165.148 E75.27306
G1 X125.547 Y165.194 E75.30698
G1 X135.181 Y155.560 E76.02400
G1 X135.248 Y154.896 E76.05908
G1 X124.950 Y165.194 E76.82547
G1 X124.354 Y165.194 E76.85687
G1 X135.191 Y154.356 E77.66344
G1 X135.134 Y153.816 E77.69201
G1 X123.773 Y165.178 E78.53757
G1 X123.281 Y165.073 E78.56405
G1 X135.078 Y153.276 E79.44200
G1 X135.010 Y152.747 E79.47010
G1 X122.789 Y164.968 E80.37969
G1 X122.297 Y164.864 E80.40617
G1 X134.864 Y152.296 E81.34149
G1 X134.718 Y151.846 E81.36641
G1 X121.805 Y164.759 E82.32747
G1 X121.386 Y164.581 E82.35140
G1 X134.571 Y151.396 E83.33270
G1 X134.425 Y150.945 E83.35762
G1 X120.974 Y164.397 E84.35875
G1 X120.561 Y164.213 E84.38254
G1 X134.233 Y150.540 E85.40013
G1 X134.015 Y150.162 E85.42312
G1 X120.148 Y164.029 E86.45519
G1 X119.751 Y163.830 E86.47858
G1 X133.797 Y149.784 E87.52396
G1 X133.578 Y149.405 E87.54694
G1 X119.405 Y163.579 E88.60179
G1 X119.059 Y163.328 E88.62427
G1 X133.360 Y149.027 E89.68858
G1 X133.092 Y148.698 E89.71090
G1 X118.714 Y163.076 E90.78101
G1 X118.368 Y162.825 E90.80349
G1 X132.809 Y148.384 E91.87828
G1 X132.527 Y148.070 E91.90051
G1 X118.049 Y162.548 E92.97801
G1 X117.756 Y162.244 E93.00022
G1 X132.244 Y147.756 E94.07847
G1 X131.951 Y147.452 E94.10067
G1 X117.473 Y161.930 E95.17817
G1 X117.191 Y161.616 E95.20040
G1 X131.632 Y147.175 E96.27519
G1 X131.286 Y146.924 E96.29767
G1 X116.908 Y161.302 E97.36778
G1 X116.640 Y160.973 E97.39010
G1 X130.941 Y146.672 E98.45441
G1 X130.595 Y146.421 E98.47689
G1 X116.422 Y160.595 E99.53174
G1 X116.203 Y160.216 E99.55472
G1 X130.249 Y146.170 E100.60010
G1 X129.852 Y145.971 E100.62349
G1 X115.985 Y159.838 E101.65556
G1 X115.767 Y159.460 E101.67855
G1 X129.439 Y145.787 E102.69614
G1 X129.026 Y145.603 E102.71993
G1 X115.575 Y159.055 E103.72106
G1 X115.429 Y158.604 E103.74599
G1 X128.614 Y145.419 E104.72728
G1 X128.195 Y145.241 E104.75121
G1 X115.282 Y158.154 E105.71227
G1 X115.136 Y157.704 E105.73719
G1 X127.703 Y145.136 E106.67251
G1 X127.211 Y145.032 E106.69899
G1 X114.990 Y157.253 E107.60858
G1 X114.922 Y156.724 E107.63668
G1 X126.719 Y144.927 E108.51463
G1 X126.227 Y144.822 E108.54111
G1 X114.866 Y156.184 E109.38667
G1 X114.809 Y155.644 E109.41524
G1 X125.646 Y144.806 E110.22181
G1 X125.050 Y144.806 E110.25321
G1 X114.752 Y155.104 E111.01960
G1 X114.819 Y154.440 E111.05468
G1 X124.453 Y144.806 E111.77170
G1 X123.810 Y144.852 E111.80561
G1 X114.889 Y153.774 E112.46958
G1 X114.959 Y153.107 E112.50486
G1 X123.052 Y145.013 E113.10722
G1 X122.295 Y145.175 E113.14799
G1 X115.204 Y152.265 E113.67573
G1 X115.491 Y151.382 E113.72464
G1 X121.364 Y145.509 E114.16174
G1 X120.288 Y145.987 F7800.000
G1 X116.052 Y150.224 E114.47703 F1200.000
G1 X117.856 Y147.823 F7800.000
G1 X118.394 Y147.285 E114.51709 F1200.000
G1 Z0.950 F7800.000
G1 X132.067 Y162.755 F7800.000
G1 X132.025 Y162.802 E114.52040 F3600.000
G1 X130.249 Y164.092 E114.63507
G1 X128.244 Y164.985 E114.74973
G1 X126.097 Y165.441 E114.86440
G1 X123.903 Y165.441 E114.97906
G1 X121.756 Y164.985 E115.09373
G1 X119.751 Y164.092 E115.20839
G1 X117.975 Y162.802 E115.32306
G1 X116.507 Y161.171 E115.43772
G1 X115.409 Y159.270 E115.55239
G1 X114.731 Y157.183 E115.66705
G1 X114.502 Y155.000 E115.78172
G1 X114.731 Y152.817 E115.89638
G1 X115.409 Y150.730 E116.01105
G1 X116.507 Y148.829 E116.12571
G1 X117.975 Y147.198 E116.24038
G1 X119.751 Y145.908 E116.35504
G1 X121.756 Y145.015 E116.46971
G1 X123.903 Y144.559 E116.58437
G1 X126.140 Y144.568 E116.70125
G1 X128.244 Y145.015 E116.81366 F3600.000
G1 X130.249 Y145.908 E116.92832
G1 X132.025 Y147.198 E117.04298
G1 X133.493 Y148.829 E117.15765
G1 X134.591 Y150.730 E117.27232
G1 X135.269 Y152.817 E117.38698
G1 X135.498 Y155.000 E117.50164
G1 X135.269 Y157.183 E117.61631
G1 X134.591 Y159.270 E117.73097
G1 X133.493 Y161.171 E117.84564
G1 X132.107 Y162.710 E117.95386
G1 X132.379 Y163.035 F7800.000
G1 X132.307 Y163.115 E117.95947 F3600.000
G1 X130.460 Y164.457 E118.07874
G1 X128.374 Y165.385 E118.19800
G1 X126.141 Y165.860 E118.31727
G1 X123.859 Y165.860 E118.43653
G1 X121.626 Y165.385 E118.55580
G1 X119.540 Y164.457 E118.67506
G1 X117.693 Y163.115 E118.79433
G1 X116.166 Y161.418 E118.91359
G1 X115.024 Y159.441 E119.03286
G1 X114.319 Y157.270 E119.15212
G1 X114.080 Y155.000 E119.27139
G1 X114.319 Y152.730 E119.39065
G1 X115.024 Y150.559 E119.50992
G1 X116.166 Y148.582 E119.62918
G1 X117.693 Y146.885 E119.74845
G1 X119.540 Y145.543 E119.86771
G1 X121.626 Y144.615 E119.98698
G1 X123.859 Y144.140 E120.10624
G1 X126.141 Y144.140 E120.22551
G1 X126.227 Y144.158 E120.23007
G1 X128.374 Y144.615 E120.34478 F3600.000
G1 X130.460 Y145.543 E120.46404
G1 X132.307 Y146.885 E120.58330
G1 X133.834 Y148.582 E120.70257
G1 X134.976 Y150.559 E120.82184
G1 X135.681 Y152.730 E120.94110
G1 X135.920 Y155.000 E121.06037
G1 X135.681 Y157.270 E121.17963
G1 X134.976 Y159.441 E121.29890
G1 X133.834 Y161.418 E121.41816
G1 X132.419 Y162.990 E121.52868
G1 X132.659 Y163.287 F7800.000
G1 X132.560 Y163.397 E121.53484 F1800.000
G1 X130.649 Y164.785 E121.63372
G1 X128.492 Y165.746 E121.73259
