; generated by Slic3r 1.2.9 on 2017-08-07 at 06:09:09

; external perimeters extrusion width = 0.40mm
; perimeters extrusion width = 0.48mm
; infill extrusion width = 0.48mm
; solid infill extrusion width = 0.48mm
; top infill extrusion width = 0.48mm
; support material extrusion width = 0.40mm

M107
M104 S200 ; set temperature
G28 ; home all axes
G1 Z5 F5000 ; lift nozzle

M109 S200 ; wait for temperature to be reached
G21 ; set units to millimeters
G90 ; use absolute coordinates
M82 ; use absolute distances for extrusion
G92 E0
G1 Z0.350 F7800.000
G1 E-2.00000 F2400.00000
G92 E0
G1 X112.561 Y133.380 F7800.000
G1 E2.00000 F2400.00000
G1 X114.168 Y132.024 E2.19123 F1800.000
G1 X116.320 Y131.231 E2.39977
G1 X117.500 Y131.125 E2.50748
G1 X132.500 Y131.125 E3.87143
G1 X134.759 Y131.522 E4.07997
G1 X136.747 Y132.665 E4.28851 F1800.000
G1 X138.226 Y134.418 E4.49705
G1 X139.019 Y136.570 E4.70560
G1 X139.125 Y137.750 E4.81331
G1 X139.125 Y172.250 E7.95038
G1 X138.728 Y174.509 E8.15892
G1 X137.585 Y176.497 E8.36746
G1 X135.832 Y177.976 E8.57600
G1 X133.680 Y178.769 E8.78455
G1 X132.500 Y178.875 E8.89225
G1 X117.500 Y178.875 E10.25620
G1 X115.241 Y178.478 E10.46474
G1 X113.253 Y177.335 E10.67328
G1 X111.774 Y175.582 E10.88183
G1 X110.981 Y173.430 E11.09037
G1 X110.875 Y172.250 E11.19808
G1 X110.875 Y137.750 E14.33515
G1 X111.272 Y135.491 E14.54369
G1 X112.415 Y133.503 E14.75223
G1 X112.515 Y133.419 E14.76409
G1 E12.76409 F2400.00000
G92 E0
G1 X130.900 Y170.650 F7800.000
G1 E2.00000 F2400.00000
G1 X119.100 Y170.650 E3.07301 F1800.000
G1 X119.100 Y139.350 E5.91915
G1 X130.900 Y139.350 E6.99216
G1 X130.900 Y170.590 E9.83284
G1 X131.525 Y171.275 F7800.000
G1 X118.475 Y171.275 E11.01949 F1800.000
G1 X118.475 Y138.725 E13.97926
G1 X131.525 Y138.725 E15.16592
G1 X131.525 Y171.215 E18.12024
G1 X132.150 Y171.900 F7800.000
G1 X117.850 Y171.900 E19.42053 F1800.000
G1 X117.850 Y138.100 E22.49395
G1 X132.150 Y138.100 E23.79424
G1 X132.150 Y171.840 E26.86221
G1 X131.804 Y171.700 F7800.000
G1 X119.478 Y169.967 F7800.000
G1 X119.783 Y170.272 E26.90175 F1800.000
G1 X120.674 Y170.272 E26.98340
G1 X119.478 Y169.076 E27.13841
G1 X119.478 Y168.185 E27.22006
G1 X121.565 Y170.272 E27.49054
G1 X122.456 Y170.272 E27.57219
G1 X119.478 Y167.294 E27.95813
G1 X119.478 Y166.403 E28.03978
G1 X123.347 Y170.272 E28.54119
G1 X124.237 Y170.272 E28.62283
G1 X119.478 Y165.513 E29.23971
G1 X119.478 Y164.622 E29.32135
G1 X125.128 Y170.272 E30.05370
G1 X126.019 Y170.272 E30.13534
G1 X119.478 Y163.731 E30.98315
G1 X119.478 Y162.840 E31.06480
G1 X126.910 Y170.272 E32.02807
G1 X127.801 Y170.272 E32.10972
G1 X119.478 Y161.949 E33.18845
G1 X119.478 Y161.059 E33.27010
G1 X128.691 Y170.272 E34.46431
G1 X129.582 Y170.272 E34.54595
G1 X119.478 Y160.168 E35.85562
G1 X119.478 Y159.277 E35.93727
G1 X130.473 Y170.272 E37.36241
G1 X130.522 Y169.430 E37.43972
G1 X119.478 Y158.386 E38.87117
G1 X119.478 Y157.495 E38.95281
G1 X130.522 Y168.539 E40.38426
G1 X130.522 Y167.648 E40.46591
G1 X119.478 Y156.605 E41.89736
G1 X119.478 Y155.714 E41.97901
G1 X130.522 Y166.757 E43.41046
G1 X130.522 Y165.866 E43.49210
G1 X119.478 Y154.823 E44.92355
G1 X119.478 Y153.932 E45.00520
G1 X130.522 Y164.976 E46.43665
G1 X130.522 Y164.085 E46.51830
G1 X119.478 Y153.042 E47.94975
G1 X119.478 Y152.151 E48.03139
G1 X130.522 Y163.194 E49.46284
G1 X130.522 Y162.303 E49.54449
G1 X119.478 Y151.260 E50.97594
G1 X119.478 Y150.369 E51.05759
G1 X130.522 Y161.412 E52.48904
G1 X130.522 Y160.522 E52.57068
G1 X119.478 Y149.478 E54.00213
G1 X119.478 Y148.588 E54.08378
G1 X130.522 Y159.631 E55.51523
G1 X130.522 Y158.740 E55.59688
G1 X119.478 Y147.697 E57.02833
G1 X119.478 Y146.806 E57.10997
G1 X130.522 Y157.849 E58.54143
G1 X130.522 Y156.958 E58.62307
G1 X119.478 Y145.915 E60.05452
G1 X119.478 Y145.024 E60.13617
G1 X130.522 Y156.068 E61.56762
G1 X130.522 Y155.177 E61.64927
G1 X119.478 Y144.134 E63.08072
G1 X119.478 Y143.243 E63.16236
G1 X130.522 Y154.286 E64.59381
G1 X130.522 Y153.395 E64.67546
G1 X119.478 Y142.352 E66.10691
G1 X119.478 Y141.461 E66.18856
G1 X130.522 Y152.505 E67.62001
G1 X130.522 Y151.614 E67.70165
G1 X119.478 Y140.570 E69.13310
G1 X119.527 Y139.728 E69.21042
G1 X130.522 Y150.723 E70.63556
G1 X130.522 Y149.832 E70.71720
G1 X120.418 Y139.728 E72.02688
G1 X121.309 Y139.728 E72.10852
G1 X130.522 Y148.941 E73.30273
G1 X130.522 Y148.051 E73.38438
G1 X122.199 Y139.728 E74.46312
G1 X123.090 Y139.728 E74.54477
G1 X130.522 Y147.160 E75.50804
G1 X130.522 Y146.269 E75.58969
G1 X123.981 Y139.728 E76.43750
G1 X124.872 Y139.728 E76.51915
G1 X130.522 Y145.378 E77.25149
G1 X130.522 Y144.487 E77.33314
G1 X125.763 Y139.728 E77.95002
G1 X126.653 Y139.728 E78.03166
G1 X130.522 Y143.597 E78.53308
G1 X130.522 Y142.706 E78.61472
G1 X127.544 Y139.728 E79.00067
G1 X128.435 Y139.728 E79.08232
G1 X130.522 Y141.815 E79.35280
G1 X130.522 Y140.924 E79.43444
G1 X129.326 Y139.728 E79.58946
G1 X130.217 Y139.728 E79.67111
G1 X130.522 Y140.033 E79.71066
G1 Z0.350 F7800.000
G1 Z0.650 F7800.000
G1 X131.504 Y171.254 F7800.000
G1 X118.496 Y171.254 E80.39025 F3600.000
G1 X118.496 Y138.746 E82.08861
G1 X131.504 Y138.746 E82.76820
G1 X131.504 Y171.194 E84.46343
G1 X131.923 Y171.673 F7800.000
G1 X118.077 Y171.673 E85.18678 F3600.000
G1 X118.077 Y138.327 E86.92892
G1 X131.923 Y138.327 E87.65227
G1 X131.923 Y171.613 E89.39127
G1 X132.300 Y172.050 F7800.000
G1 X117.700 Y172.050 E90.00243 F1800.000
G1 X117.700 Y137.950 E91.42987
G1 X132.300 Y137.950 E92.04103
G1 X132.300 Y171.990 E93.46595
G1 X131.954 Y171.850 F7800.000
G1 X131.039 Y171.007 F7800.000
G1 X131.257 Y170.789 E93.48213 F1200.000
G1 X131.257 Y170.193 E93.51344
G1 X130.443 Y171.007 E93.57390
G1 X129.847 Y171.007 E93.60521
G1 X131.257 Y169.597 E93.70995
G1 X131.257 Y169.001 E93.74126
G1 X129.251 Y171.007 E93.89028
G1 X128.656 Y171.007 E93.92159
G1 X131.257 Y168.406 E94.11488
G1 X131.257 Y167.810 E94.14619
G1 X128.060 Y171.007 E94.38377
G1 X127.464 Y171.007 E94.41508
G1 X131.257 Y167.214 E94.69694
G1 X131.257 Y166.618 E94.72825
G1 X126.868 Y171.007 E95.05438
G1 X126.272 Y171.007 E95.08569
G1 X131.257 Y166.022 E95.45610
G1 X131.257 Y165.427 E95.48741
G1 X125.677 Y171.007 E95.90211
G1 X125.081 Y171.007 E95.93342
G1 X131.257 Y164.831 E96.39239
G1 X131.257 Y164.235 E96.42370
G1 X124.485 Y171.007 E96.92695
G1 X123.889 Y171.007 E96.95826
G1 X131.257 Y163.639 E97.50579
G1 X131.257 Y163.043 E97.53710
G1 X123.293 Y171.007 E98.12891
G1 X122.697 Y171.007 E98.16022
G1 X131.257 Y162.447 E98.79631
G1 X131.257 Y161.852 E98.82762
G1 X122.102 Y171.007 E99.50798
G1 X121.506 Y171.007 E99.53929
G1 X131.257 Y161.256 E100.26394
G1 X131.257 Y160.660 E100.29525
G1 X120.910 Y171.007 E101.06418
G1 X120.314 Y171.007 E101.09549
G1 X131.257 Y160.064 E101.90869
G1 X131.257 Y159.468 E101.94000
G1 X119.718 Y171.007 E102.79749
G1 X119.122 Y171.007 E102.82880
G1 X131.257 Y158.872 E103.73056
G1 X131.257 Y158.277 E103.76187
G1 X118.743 Y170.790 E104.69181
G1 X118.743 Y170.194 E104.72312
G1 X131.257 Y157.681 E105.65305
G1 X131.257 Y157.085 E105.68436
G1 X118.743 Y169.598 E106.61430
G1 X118.743 Y169.002 E106.64561
G1 X131.257 Y156.489 E107.57555
G1 X131.257 Y155.893 E107.60686
G1 X118.743 Y168.407 E108.53679
G1 X118.743 Y167.811 E108.56810
G1 X131.257 Y155.297 E109.49804
G1 X131.257 Y154.702 E109.52935
G1 X118.743 Y167.215 E110.45929
G1 X118.743 Y166.619 E110.49060
G1 X131.257 Y154.106 E111.42053
G1 X131.257 Y153.510 E111.45184
G1 X118.743 Y166.023 E112.38178
G1 X118.743 Y165.428 E112.41309
G1 X131.257 Y152.914 E113.34303
G1 X131.257 Y152.318 E113.37434
G1 X118.743 Y164.832 E114.30427
G1 X118.743 Y164.236 E114.33559
G1 X131.257 Y151.722 E115.26552
G1 X131.257 Y151.127 E115.29683
G1 X118.743 Y163.640 E116.22677
G1 X118.743 Y163.044 E116.25808
G1 X131.257 Y150.531 E117.18802
G1 X131.257 Y149.935 E117.21933
G1 X118.743 Y162.448 E118.14926
G1 X118.743 Y161.853 E118.18057
G1 X131.257 Y149.339 E119.11051
G1 X131.257 Y148.743 E119.14182
G1 X118.743 Y161.257 E120.07176
G1 X118.743 Y160.661 E120.10307
G1 X131.257 Y148.147 E121.03300
G1 X131.257 Y147.552 E121.06431
G1 X118.743 Y160.065 E121.99425
G1 X118.743 Y159.469 E122.02556
G1 X131.257 Y146.956 E122.95550
G1 X131.257 Y146.360 E122.98681
G1 X118.743 Y158.873 E123.91674
G1 X118.743 Y158.278 E123.94805
G1 X131.257 Y145.764 E124.87799
G1 X131.257 Y145.168 E124.90930
G1 X118.743 Y157.682 E125.83924
G1 X118.743 Y157.086 E125.87055
G1 X131.257 Y144.572 E126.80049
G1 X131.257 Y143.977 E126.83180
G1 X118.743 Y156.490 E127.76173
G1 X118.743 Y155.894 E127.79304
G1 X131.257 Y143.381 E128.72298
G1 X131.257 Y142.785 E128.75429
G1 X118.743 Y155.298 E129.68423
G1 X118.743 Y154.703 E129.71554
G1 X131.257 Y142.189 E130.64547
G1 X131.257 Y141.593 E130.67678
G1 X118.743 Y154.107 E131.60672
G1 X118.743 Y153.511 E131.63803
G1 X131.257 Y140.998 E132.56797
G1 X131.257 Y140.402 E132.59928
G1 X118.743 Y152.915 E133.52921
G1 X118.743 Y152.319 E133.56052
G1 X131.257 Y139.806 E134.49046
G1 X131.257 Y139.210 E134.52177
G1 X118.743 Y151.723 E135.45171
G1 X118.743 Y151.128 E135.48302
G1 X130.878 Y138.993 E136.38478
G1 X130.282 Y138.993 E136.41609
G1 X118.743 Y150.532 E137.27357
G1 X118.743 Y149.936 E137.30488
G1 X129.686 Y138.993 E138.11809
G1 X129.090 Y138.993 E138.14940
G1 X118.743 Y149.340 E138.91832
G1 X118.743 Y148.744 E138.94963
G1 X128.494 Y138.993 E139.67428
G1 X127.898 Y138.993 E139.70559
G1 X118.743 Y148.148 E140.38596
G1 X118.743 Y147.553 E140.41727
G1 X127.303 Y138.993 E141.05336
G1 X126.707 Y138.993 E141.08467
G1 X118.743 Y146.957 E141.67648
G1 X118.743 Y146.361 E141.70779
G1 X126.111 Y138.993 E142.25532
G1 X125.515 Y138.993 E142.28663
G1 X118.743 Y145.765 E142.78988
G1 X118.743 Y145.169 E142.82119
G1 X124.919 Y138.993 E143.28016
G1 X124.323 Y138.993 E143.31147
G1 X118.743 Y144.573 E143.72616
G1 X118.743 Y143.978 E143.75747
G1 X123.728 Y138.993 E144.12788
G1 X123.132 Y138.993 E144.15919
G1 X118.743 Y143.382 E144.48533
G1 X118.743 Y142.786 E144.51664
G1 X122.536 Y138.993 E144.79849
G1 X121.940 Y138.993 E144.82980
G1 X118.743 Y142.190 E145.06738
G1 X118.743 Y141.594 E145.09869
G1 X121.344 Y138.993 E145.29198
G1 X120.748 Y138.993 E145.32329
G1 X118.743 Y140.999 E145.47231
G1 X118.743 Y140.403 E145.50362
G1 X120.153 Y138.993 E145.60836
G1 X119.557 Y138.993 E145.63967
G1 X118.743 Y139.807 E145.70013
G1 X118.743 Y139.211 E145.73144
G1 X118.961 Y138.993 E145.74762
G1 Z0.950 F7800.000
G1 E143.74762 F2400.00000
G92 E0
G1 X131.085 Y170.835 F7800.000
G1 E2.00000 F2400.00000
G1 X118.915 Y170.835 E2.63582 F3600.000
G1 X118.915 Y139.165 E4.29042
G1 X131.085 Y139.165 E4.92623
G1 X131.085 Y170.775 E6.57770
G1 X131.504 Y171.254 F7800.000
G1 X118.496 Y171.254 E7.25728 F3600.000
G1 X118.496 Y138.746 E8.95565
G1 X131.504 Y138.746 E9.63524
G1 X131.504 Y171.194 E11.33046
G1 X131.923 Y171.673 F7800.000
G1 X118.077 Y171.673 E12.05382 F3600.000
G1 X118.077 Y138.327 E13.79595
G1 X131.923 Y138.327 E14.51931
G1 X131.923 Y171.613 E16.25831
G1 X132.300 Y172.050 F7800.000
G1 X117.700 Y172.050 E16.86947 F1800.000
G1 X117.700 Y137.950 E18.29691
G1 X132.300 Y137.950 E18.90807
G1 X132.300 Y171.990 E20.33299
G1 X131.954 Y171.850 F7800.000
G1 E18.33299 F2400.00000
G92 E0
G1 X119.380 Y170.588 F7800.000
G1 E2.00000 F2400.00000
G1 X119.162 Y170.370 E2.01622 F900.000
G1 X119.162 Y169.773 E2.04770
G1 X119.977 Y170.588 E2.10843
G1 X120.575 Y170.588 E2.13991
G1 X119.162 Y169.175 E2.24516
G1 X119.162 Y168.578 E2.27664
G1 X121.172 Y170.588 E2.42640
G1 X121.770 Y170.588 E2.45788
G1 X119.162 Y167.980 E2.65215
G1 X119.162 Y167.383 E2.68363
G1 X122.367 Y170.588 E2.92242
G1 X122.964 Y170.588 E2.95390
G1 X119.162 Y166.786 E3.23720
G1 X119.162 Y166.188 E3.26868
G1 X123.562 Y170.588 E3.59650
G1 X124.159 Y170.588 E3.62797
G1 X119.162 Y165.591 E4.00031
G1 X119.162 Y164.993 E4.03178
G1 X124.757 Y170.588 E4.44863
G1 X125.354 Y170.588 E4.48011
G1 X119.162 Y164.396 E4.94147
G1 X119.162 Y163.799 E4.97294
G1 X125.951 Y170.588 E5.47882
G1 X126.549 Y170.588 E5.51029
G1 X119.162 Y163.201 E6.06068
G1 X119.162 Y162.604 E6.09216
G1 X127.146 Y170.588 E6.68706
G1 X127.744 Y170.588 E6.71854
G1 X119.162 Y162.006 E7.35795
G1 X119.162 Y161.409 E7.38943
G1 X128.341 Y170.588 E8.07336
G1 X128.938 Y170.588 E8.10483
G1 X119.162 Y160.812 E8.83328
G1 X119.162 Y160.214 E8.86475
G1 X129.536 Y170.588 E9.63771
G1 X130.133 Y170.588 E9.66919
G1 X119.162 Y159.617 E10.48666
G1 X119.162 Y159.019 E10.51813
G1 X130.731 Y170.588 E11.38012
G1 X130.838 Y170.098 E11.40656
G1 X119.162 Y158.422 E12.27653
G1 X119.162 Y157.825 E12.30801
G1 X130.838 Y169.500 E13.17798
G1 X130.838 Y168.903 E13.20946
G1 X119.162 Y157.227 E14.07943
G1 X119.162 Y156.630 E14.11091
G1 X130.838 Y168.305 E14.98088
G1 X130.838 Y167.708 E15.01236
G1 X119.162 Y156.032 E15.88233
G1 X119.162 Y155.435 E15.91381
G1 X130.838 Y167.111 E16.78378
G1 X130.838 Y166.513 E16.81526
G1 X119.162 Y154.838 E17.68523
G1 X119.162 Y154.240 E17.71671
G1 X130.838 Y165.916 E18.58668
G1 X130.838 Y165.318 E18.61816
G1 X119.162 Y153.643 E19.48813
G1 X119.162 Y153.045 E19.51961
G1 X130.838 Y164.721 E20.38958
G1 X130.838 Y164.124 E20.42106
G1 X119.162 Y152.448 E21.29103
G1 X119.162 Y151.851 E21.32251
G1 X130.838 Y163.526 E22.19248
G1 X130.838 Y162.929 E22.22396
G1 X119.162 Y151.253 E23.09393
G1 X119.162 Y150.656 E23.12541
G1 X130.838 Y162.331 E23.99538
G1 X130.838 Y161.734 E24.02686
G1 X119.162 Y150.058 E24.89683
G1 X119.162 Y149.461 E24.92831
G1 X130.838 Y161.137 E25.79828
G1 X130.838 Y160.539 E25.82976
G1 X119.162 Y148.863 E26.69973
G1 X119.162 Y148.266 E26.73121
G1 X130.838 Y159.942 E27.60118
G1 X130.838 Y159.344 E27.63266
G1 X119.162 Y147.669 E28.50263
G1 X119.162 Y147.071 E28.53411
G1 X130.838 Y158.747 E29.40408
G1 X130.838 Y158.149 E29.43556
G1 X119.162 Y146.474 E30.30553
G1 X119.162 Y145.876 E30.33701
G1 X130.838 Y157.552 E31.20698
G1 X130.838 Y156.955 E31.23846
G1 X119.162 Y145.279 E32.10843
G1 X119.162 Y144.682 E32.13991
G1 X130.838 Y156.357 E33.00988
G1 X130.838 Y155.760 E33.04136
G1 X119.162 Y144.084 E33.91133
G1 X119.162 Y143.487 E33.94281
G1 X130.838 Y155.162 E34.81278
G1 X130.838 Y154.565 E34.84426
G1 X119.162 Y142.889 E35.71423
G1 X119.162 Y142.292 E35.74571
G1 X130.838 Y153.968 E36.61568
G1 X130.838 Y153.370 E36.64716
G1 X119.162 Y141.695 E37.51713
G1 X119.162 Y141.097 E37.54861
G1 X130.838 Y152.773 E38.41858
G1 X130.838 Y152.175 E38.45006
G1 X119.162 Y140.500 E39.32003
G1 X119.162 Y139.902 E39.35151
G1 X130.838 Y151.578 E40.22148
G1 X130.838 Y150.981 E40.25296
G1 X119.269 Y139.412 E41.11495
G1 X119.867 Y139.412 E41.14642
G1 X130.838 Y150.383 E41.96389
G1 X130.838 Y149.786 E41.99537
G1 X120.464 Y139.412 E42.76833
G1 X121.062 Y139.412 E42.79980
G1 X130.838 Y149.188 E43.52825
G1 X130.838 Y148.591 E43.55972
G1 X121.659 Y139.412 E44.24365
G1 X122.256 Y139.412 E44.27513
G1 X130.838 Y147.994 E44.91455
G1 X130.838 Y147.396 E44.94602
G1 X122.854 Y139.412 E45.54093
G1 X123.451 Y139.412 E45.57240
G1 X130.838 Y146.799 E46.12279
G1 X130.838 Y146.201 E46.15427
G1 X124.049 Y139.412 E46.66014
G1 X124.646 Y139.412 E46.69162
G1 X130.838 Y145.604 E47.15298
G1 X130.838 Y145.007 E47.18445
G1 X125.243 Y139.412 E47.60130
G1 X125.841 Y139.412 E47.63278
G1 X130.838 Y144.409 E48.00511
G1 X130.838 Y143.812 E48.03659
G1 X126.438 Y139.412 E48.36441
G1 X127.036 Y139.412 E48.39588
G1 X130.838 Y143.214 E48.67919
G1 X130.838 Y142.617 E48.71066
G1 X127.633 Y139.412 E48.94946
G1 X128.230 Y139.412 E48.98093
G1 X130.838 Y142.020 E49.17521
G1 X130.838 Y141.422 E49.20669
G1 X128.828 Y139.412 E49.35645
G1 X129.425 Y139.412 E49.38793
G1 X130.838 Y140.825 E49.49318
G1 X130.838 Y140.227 E49.52465
G1 X130.023 Y139.412 E49.58539
G1 X130.620 Y139.412 E49.61686
G1 X130.838 Y139.630 E49.63309
M106 S244.8
G1 Z1.250 F7800.000
G1 E47.63309 F2400.00000
G92 E0
G1 X131.923 Y171.673 F7800.000
G1 E2.00000 F2400.00000
G1 X118.077 Y171.673 E2.72336 F900.000
G1 X118.077 Y171.327 E2.74141
G1 X131.923 Y171.327 E3.46476
G1 X131.923 Y171.613 E3.47968
G1 X132.300 Y172.050 F7800.000
G1 X117.700 Y172.050 E4.09084 F900.000
G1 X117.700 Y170.950 E4.13689
G1 X132.300 Y170.950 E4.74805
G1 X132.300 Y171.990 E4.79158
G1 X131.954 Y171.850 F7800.000
G1 E2.79158 F2400.00000
G92 E0
