; generated by Slic3r 1.2.9 on 2017-08-07 at 05:46:30

; external perimeters extrusion width = 0.40mm
; perimeters extrusion width = 0.48mm
; infill extrusion width = 0.48mm
; solid infill extrusion width = 0.48mm
; top infill extrusion width = 0.48mm
; support material extrusion width = 0.40mm

M107
M104 S200 ; set temperature
G28 ; home all axes
G1 Z5 F5000 ; lift nozzle

M109 S200 ; wait for temperature to be reached
G21 ; set units to millimeters
G90 ; use absolute coordinates
M82 ; use absolute distances for extrusion
G92 E0
G1 Z0.350 F7800.000
G1 E-2.00000 F2400.00000
G92 E0
G1 X118.440 Y134.522 F7800.000
G1 E2.00000 F2400.00000
G1 X120.313 Y133.198 E2.20854 F1800.000
G1 X123.144 Y132.563 E2.47236
G1 X127.337 Y132.563 E2.85371
G1 X129.596 Y132.959 E3.06226
G1 X132.253 Y134.746 E3.35340 F1800.000
G1 X137.166 Y140.184 E4.01974
G1 X138.679 Y143.025 E4.31243
G1 X141.210 Y153.196 E5.26548
G1 X141.370 Y154.103 E5.34927
G1 X141.589 Y156.183 E5.53937
G1 X141.589 Y157.567 E5.66530
G1 X141.370 Y159.647 E5.85545
G1 X141.210 Y160.554 E5.93920
G1 X138.679 Y170.725 E6.89224
G1 X137.748 Y172.821 E7.10079
G1 X136.158 Y174.474 E7.30933
G1 X134.100 Y175.486 E7.51787
G1 X132.250 Y175.750 E7.68781
G1 X117.750 Y175.750 E9.00629
G1 X115.491 Y175.353 E9.21483
G1 X113.503 Y174.210 E9.42337
G1 X112.024 Y172.457 E9.63191
G1 X111.321 Y170.725 E9.80185
G1 X108.790 Y160.554 E10.75490
G1 X108.630 Y159.647 E10.83870
G1 X108.411 Y157.567 E11.02882
G1 X108.411 Y156.183 E11.15472
G1 X108.630 Y154.103 E11.34487
G1 X108.790 Y153.196 E11.42862
G1 X111.321 Y143.025 E12.38167
G1 X112.252 Y140.929 E12.59021
G1 X113.046 Y139.960 E12.70416
G1 X118.398 Y134.565 E13.39512
G1 E11.39512 F2400.00000
G92 E0
G1 X130.650 Y167.525 F7800.000
G1 E2.00000 F2400.00000
G1 X119.350 Y167.525 E3.02754 F1800.000
G1 X119.350 Y163.072 E3.43249
G1 X118.211 Y161.807 E3.58721
G1 X117.334 Y160.288 E3.74673
G1 X116.792 Y158.620 E3.90624
G1 X116.609 Y156.875 E4.06576
G1 X116.792 Y155.130 E4.22527
G1 X117.334 Y153.462 E4.38479
G1 X118.211 Y151.943 E4.54431
G1 X119.350 Y150.678 E4.69903
G1 X119.350 Y146.225 E5.10397
G1 X130.650 Y146.225 E6.13152
G1 X130.650 Y150.678 E6.53646
G1 X131.789 Y151.943 E6.69118
G1 X132.666 Y153.462 E6.85070
G1 X133.208 Y155.130 E7.01021
G1 X133.391 Y156.875 E7.16973
G1 X133.208 Y158.620 E7.32925
G1 X132.666 Y160.288 E7.48876
G1 X131.789 Y161.807 E7.64828
G1 X130.650 Y163.072 E7.80300
G1 X130.650 Y167.465 E8.20249
G1 X131.275 Y168.150 F7800.000
G1 X118.725 Y168.150 E9.34367 F1800.000
G1 X118.725 Y163.312 E9.78363
G1 X117.703 Y162.177 E9.92251
G1 X116.760 Y160.544 E10.09397
G1 X116.177 Y158.750 E10.26543
G1 X115.980 Y156.875 E10.43689
G1 X116.177 Y155.000 E10.60835
G1 X116.760 Y153.206 E10.77981
G1 X117.703 Y151.573 E10.95127
G1 X118.725 Y150.438 E11.09016
G1 X118.725 Y145.600 E11.53011
G1 X131.275 Y145.600 E12.67129
G1 X131.275 Y150.438 E13.11125
G1 X132.297 Y151.573 E13.25013
G1 X133.240 Y153.206 E13.42159
G1 X133.823 Y155.000 E13.59305
G1 X134.020 Y156.875 E13.76451
G1 X133.823 Y158.750 E13.93597
G1 X133.240 Y160.544 E14.10743
G1 X132.297 Y162.177 E14.27889
G1 X131.275 Y163.312 E14.41778
G1 X131.275 Y168.090 E14.85227
G1 X131.900 Y168.775 F7800.000
G1 X118.100 Y168.775 E16.10710 F1800.000
G1 X118.100 Y163.552 E16.58206
G1 X117.195 Y162.546 E16.70510
G1 X116.186 Y160.799 E16.88851
G1 X115.563 Y158.881 E17.07191
G1 X115.352 Y156.875 E17.25532
G1 X115.563 Y154.869 E17.43872
G1 X116.186 Y152.951 E17.62213
G1 X117.195 Y151.204 E17.80553
G1 X118.100 Y150.198 E17.92858
G1 X118.100 Y144.975 E18.40354
G1 X131.900 Y144.975 E19.65837
G1 X131.900 Y150.198 E20.13333
G1 X132.805 Y151.204 E20.25637
G1 X133.814 Y152.951 E20.43978
G1 X134.437 Y154.869 E20.62318
G1 X134.648 Y156.875 E20.80659
G1 X134.437 Y158.881 E20.98999
G1 X133.814 Y160.799 E21.17339
G1 X132.805 Y162.546 E21.35680
G1 X131.900 Y163.552 E21.47984
G1 X131.900 Y168.715 E21.94935
G1 X131.554 Y168.575 F7800.000
G1 X119.728 Y166.842 F7800.000
G1 X120.033 Y167.147 E21.98914 F1800.000
G1 X120.930 Y167.147 E22.07181
G1 X119.728 Y165.945 E22.22852
G1 X119.728 Y165.049 E22.31120
G1 X121.826 Y167.147 E22.58482
G1 X122.723 Y167.147 E22.66749
G1 X119.728 Y164.152 E23.05803
G1 X119.728 Y163.256 E23.14070
G1 X123.619 Y167.147 E23.64816
G1 X124.515 Y167.147 E23.73083
G1 X118.157 Y160.789 E24.56013
G1 X117.411 Y159.146 F7800.000
G1 X125.412 Y167.147 E25.60369 F1800.000
G1 X126.308 Y167.147 E25.68636
G1 X117.118 Y157.956 E26.88509
G1 X117.012 Y156.955 E26.97798
G1 X127.204 Y167.147 E28.30737
G1 X128.101 Y167.147 E28.39004
G1 X117.057 Y156.103 E29.83048
G1 X117.142 Y155.292 E29.90570
G1 X128.997 Y167.147 E31.45193
G1 X129.893 Y167.147 E31.53460
G1 X117.331 Y154.584 E33.17314
G1 X117.551 Y153.908 E33.23874
G1 X130.272 Y166.628 E34.89793
G1 X130.272 Y165.732 E34.98060
G1 X117.820 Y153.280 E36.60471
G1 X118.148 Y152.712 E36.66523
G1 X130.272 Y164.836 E38.24654
G1 X130.272 Y163.939 E38.32921
G1 X118.476 Y152.144 E39.86773
G1 X118.895 Y151.667 E39.92631
G1 X130.272 Y163.043 E41.41014
G1 X130.680 Y162.555 E41.46883
G1 X119.320 Y151.195 E42.95050
G1 X119.728 Y150.707 E43.00919
G1 X131.105 Y162.083 E44.49302
G1 X131.524 Y161.606 E44.55160
G1 X119.728 Y149.811 E46.09012
G1 X119.728 Y148.914 E46.17279
G1 X131.852 Y161.038 E47.75410
G1 X132.180 Y160.470 E47.81462
G1 X119.728 Y148.018 E49.43872
G1 X119.728 Y147.122 E49.52139
G1 X132.449 Y159.842 E51.18058
G1 X132.669 Y159.166 E51.24619
G1 X120.107 Y146.603 E52.88473
G1 X121.003 Y146.603 E52.96740
G1 X132.858 Y158.458 E54.51363
G1 X132.943 Y157.647 E54.58885
G1 X121.899 Y146.603 E56.02930
G1 X122.796 Y146.603 E56.11197
G1 X132.988 Y156.795 E57.44135
G1 X132.882 Y155.794 E57.53424
G1 X123.692 Y146.603 E58.73298
G1 X124.588 Y146.603 E58.81565
G1 X132.589 Y154.604 E59.85921
G1 X131.843 Y152.961 F7800.000
G1 X125.485 Y146.603 E60.68852 F1800.000
G1 X126.381 Y146.603 E60.77119
G1 X130.272 Y150.494 E61.27865
G1 X130.272 Y149.598 E61.36132
G1 X127.277 Y146.603 E61.75186
G1 X128.174 Y146.603 E61.83453
G1 X130.272 Y148.701 E62.10816
G1 X130.272 Y147.805 E62.19083
G1 X129.070 Y146.603 E62.34754
G1 X129.967 Y146.603 E62.43021
G1 X130.272 Y146.908 E62.47001
G1 Z0.350 F7800.000
G1 E60.47001 F2400.00000
G92 E0
G1 X126.217 Y144.213 F7800.000
G1 E2.00000 F2400.00000
G1 X127.651 Y141.352 E2.29097 F1800.000
G1 X127.337 Y139.187 E2.48983
G1 X124.819 Y144.213 E3.00095
G1 X123.421 Y144.213 E3.12807
G1 X125.939 Y139.187 E3.63918
G1 X124.541 Y139.187 E3.76630
G1 X122.349 Y143.561 E4.21114
G1 X122.349 Y140.772 E4.46476
G1 X123.144 Y139.187 E4.62590
G1 Z0.550 F7800.000
G1 X124.553 Y141.475 F7800.000
G1 X124.553 Y139.375 E4.68825 F3600.000
G1 X122.453 Y139.375 E4.75060
G1 X122.453 Y141.475 E4.81296
G1 X124.553 Y141.475 E4.87531
G1 Z0.650 F7800.000
G1 E2.87531 F2400.00000
G92 E0
G1 X131.254 Y168.129 F7800.000
G1 E2.00000 F2400.00000
G1 X118.746 Y168.129 E2.65347 F3600.000
G1 X118.746 Y163.304 E2.90556
G1 X117.720 Y162.164 E2.98567
G1 X116.780 Y160.535 E3.08395
G1 X116.198 Y158.746 E3.18223
G1 X116.002 Y156.875 E3.28051
G1 X116.198 Y155.004 E3.37880
G1 X116.780 Y153.215 E3.47708
G1 X117.720 Y151.586 E3.57536
G1 X118.746 Y150.446 E3.65547
G1 X118.746 Y145.621 E3.90756
G1 X131.254 Y145.621 E4.56103
G1 X131.254 Y150.446 E4.81313
G1 X132.280 Y151.586 E4.89323
G1 X133.220 Y153.215 E4.99152
G1 X133.802 Y155.004 E5.08980
G1 X133.998 Y156.875 E5.18808
G1 X133.802 Y158.746 E5.28636
G1 X133.220 Y160.535 E5.38464
G1 X132.280 Y162.164 E5.48292
G1 X131.254 Y163.304 E5.56303
G1 X131.254 Y168.069 E5.81199
G1 X131.673 Y168.548 F7800.000
G1 X118.327 Y168.548 E6.50923 F3600.000
G1 X118.327 Y163.464 E6.77481
G1 X117.379 Y162.412 E6.84881
G1 X116.395 Y160.706 E6.95170
G1 X115.786 Y158.833 E7.05458
G1 X115.580 Y156.875 E7.15746
G1 X115.786 Y154.917 E7.26034
G1 X116.395 Y153.044 E7.36323
G1 X117.379 Y151.338 E7.46611
G1 X118.327 Y150.286 E7.54011
G1 X118.327 Y145.202 E7.80569
G1 X131.673 Y145.202 E8.50293
G1 X131.673 Y150.286 E8.76851
G1 X132.621 Y151.338 E8.84252
G1 X133.605 Y153.044 E8.94540
G1 X134.214 Y154.917 E9.04828
G1 X134.420 Y156.875 E9.15116
G1 X134.214 Y158.833 E9.25404
G1 X133.605 Y160.706 E9.35693
G1 X132.621 Y162.412 E9.45981
G1 X131.673 Y163.464 E9.53381
G1 X131.673 Y168.488 E9.79626
G1 X132.050 Y168.925 F7800.000
G1 X117.950 Y168.925 E10.38649 F1800.000
G1 X117.950 Y163.609 E10.60901
G1 X117.073 Y162.635 E10.66391
G1 X116.048 Y160.861 E10.74966
G1 X115.415 Y158.912 E10.83541
G1 X115.201 Y156.875 E10.92116
G1 X115.415 Y154.838 E11.00691
G1 X116.048 Y152.889 E11.09267
G1 X117.073 Y151.115 E11.17842
G1 X117.950 Y150.141 E11.23331
G1 X117.950 Y144.825 E11.45583
G1 X132.050 Y144.825 E12.04606
G1 X132.050 Y150.141 E12.26859
G1 X132.927 Y151.115 E12.32348
G1 X133.952 Y152.889 E12.40923
G1 X134.585 Y154.838 E12.49498
G1 X134.799 Y156.875 E12.58074
G1 X134.585 Y158.912 E12.66649
G1 X133.952 Y160.861 E12.75224
G1 X132.927 Y162.635 E12.83799
G1 X132.050 Y163.609 E12.89289
G1 X132.050 Y168.865 E13.11290
G1 X131.704 Y168.725 F7800.000
G1 X130.789 Y167.882 F7800.000
G1 X131.007 Y167.664 E13.12919 F1200.000
G1 X131.007 Y167.064 E13.16092
G1 X130.189 Y167.882 E13.22209
G1 X129.589 Y167.882 E13.25382
G1 X131.007 Y166.464 E13.35986
G1 X131.007 Y165.864 E13.39160
G1 X128.989 Y167.882 E13.54252
G1 X128.390 Y167.882 E13.57425
G1 X131.007 Y165.265 E13.77006
G1 X131.007 Y164.665 E13.80179
G1 X127.790 Y167.882 E14.04247
G1 X127.190 Y167.882 E14.07420
G1 X131.007 Y164.065 E14.35976
G1 X131.007 Y163.465 E14.39149
G1 X126.590 Y167.882 E14.72193
G1 X125.990 Y167.882 E14.75366
G1 X132.232 Y161.640 E15.22066
G1 X133.019 Y160.254 F7800.000
G1 X125.390 Y167.882 E15.79137 F1200.000
G1 X124.791 Y167.882 E15.82310
G1 X133.307 Y159.365 E16.46029
G1 X133.569 Y158.504 E16.50792
G1 X124.191 Y167.882 E17.20955
G1 X123.591 Y167.882 E17.24129
G1 X133.639 Y157.833 E17.99308
G1 X133.710 Y157.163 E18.02873
G1 X122.991 Y167.882 E18.83067
G1 X122.391 Y167.882 E18.86240
G1 X133.724 Y156.548 E19.71031
G1 X133.667 Y156.006 E19.73919
G1 X121.791 Y167.882 E20.62771
G1 X121.191 Y167.882 E20.65944
G1 X133.610 Y155.463 E21.58857
G1 X133.542 Y154.931 E21.61694
G1 X120.592 Y167.882 E22.58586
G1 X119.992 Y167.882 E22.61760
G1 X133.395 Y154.478 E23.62040
G1 X133.248 Y154.025 E23.64558
G1 X119.392 Y167.882 E24.68225
G1 X118.993 Y167.680 E24.70587
G1 X133.101 Y153.573 E25.76136
G1 X132.931 Y153.143 E25.78581
G1 X118.993 Y167.081 E26.82857
G1 X118.993 Y166.481 E26.86031
G1 X132.711 Y152.763 E27.88664
G1 X132.492 Y152.382 E27.90987
G1 X118.993 Y165.881 E28.91978
G1 X118.993 Y165.281 E28.95152
G1 X132.272 Y152.002 E29.94500
G1 X132.040 Y151.634 E29.96801
G1 X118.993 Y164.681 E30.94412
G1 X118.993 Y164.081 E30.97586
G1 X131.756 Y151.319 E31.93071
G1 X131.472 Y151.003 E31.95318
G1 X118.993 Y163.482 E32.88677
G1 X118.812 Y163.063 F7800.000
G1 X131.188 Y150.687 E33.81263 F1200.000
G1 X131.007 Y150.268 F7800.000
G1 X118.528 Y162.747 E34.74622 F1200.000
G1 X118.244 Y162.431 E34.76869
G1 X131.007 Y149.669 E35.72355
G1 X131.007 Y149.069 E35.75528
G1 X117.960 Y162.116 E36.73140
G1 X117.728 Y161.748 E36.75440
G1 X131.007 Y148.469 E37.74789
G1 X131.007 Y147.869 E37.77962
G1 X117.508 Y161.368 E38.78953
G1 X117.289 Y160.987 E38.81276
G1 X131.007 Y147.269 E39.83910
G1 X131.007 Y146.669 E39.87083
G1 X117.069 Y160.607 E40.91359
G1 X116.899 Y160.177 E40.93804
G1 X131.007 Y146.070 E41.99353
G1 X130.608 Y145.868 E42.01715
G1 X116.752 Y159.725 E43.05383
G1 X116.605 Y159.272 E43.07901
G1 X130.008 Y145.868 E44.08181
G1 X129.408 Y145.868 E44.11354
G1 X116.458 Y158.819 E45.08247
G1 X116.390 Y158.287 E45.11084
G1 X128.809 Y145.868 E46.03997
G1 X128.209 Y145.868 E46.07170
G1 X116.333 Y157.744 E46.96022
G1 X116.276 Y157.202 E46.98909
G1 X127.609 Y145.868 E47.83700
G1 X127.009 Y145.868 E47.86874
G1 X116.290 Y156.587 E48.67067
G1 X116.361 Y155.917 E48.70633
G1 X126.409 Y145.868 E49.45812
G1 X125.809 Y145.868 E49.48985
G1 X116.431 Y155.246 E50.19149
G1 X116.693 Y154.385 E50.23912
G1 X125.209 Y145.868 E50.87631
G1 X124.610 Y145.868 E50.90804
G1 X116.981 Y153.496 E51.47875
G1 X117.768 Y152.110 F7800.000
G1 X124.010 Y145.868 E51.94574 F1200.000
G1 X123.410 Y145.868 E51.97747
G1 X118.993 Y150.285 E52.30791
G1 X118.993 Y149.685 E52.33964
G1 X122.810 Y145.868 E52.62520
G1 X122.210 Y145.868 E52.65694
G1 X118.993 Y149.085 E52.89761
G1 X118.993 Y148.485 E52.92935
G1 X121.610 Y145.868 E53.12515
G1 X121.011 Y145.868 E53.15688
G1 X118.993 Y147.886 E53.30781
G1 X118.993 Y147.286 E53.33954
G1 X120.411 Y145.868 E53.44558
G1 X119.811 Y145.868 E53.47732
G1 X118.993 Y146.686 E53.53848
G1 X118.993 Y146.086 E53.57022
G1 X119.211 Y145.868 E53.58651
G1 Z0.900 F7800.000
G1 E51.58651 F2400.00000
G92 E0
G1 X124.553 Y141.475 F7800.000
G1 E2.00000 F2400.00000
G1 X124.553 Y139.375 E2.09928 F3600.000
G1 X122.453 Y139.375 E2.19856
G1 X122.453 Y141.475 E2.29784
G1 X124.553 Y141.475 E2.39712
G1 Z0.950 F7800.000
G1 E0.39712 F2400.00000
G92 E0
G1 X131.254 Y168.129 F7800.000
G1 E2.00000 F2400.00000
G1 X118.746 Y168.129 E2.65347 F3600.000
G1 X118.746 Y163.304 E2.90556
G1 X117.720 Y162.164 E2.98567
G1 X116.780 Y160.535 E3.08395
G1 X116.198 Y158.746 E3.18223
G1 X116.002 Y156.875 E3.28051
G1 X116.198 Y155.004 E3.37880
G1 X116.780 Y153.215 E3.47708
G1 X117.720 Y151.586 E3.57536
G1 X118.746 Y150.446 E3.65547
G1 X118.746 Y145.621 E3.90756
G1 X131.254 Y145.621 E4.56103
G1 X131.254 Y150.446 E4.81313
G1 X132.280 Y151.586 E4.89323
G1 X133.220 Y153.215 E4.99152
G1 X133.802 Y155.004 E5.08980
G1 X133.998 Y156.875 E5.18808
G1 X133.802 Y158.746 E5.28636
G1 X133.220 Y160.535 E5.38464
G1 X132.280 Y162.164 E5.48292
G1 X131.254 Y163.304 E5.56303
G1 X131.254 Y168.069 E5.81199
G1 X131.673 Y168.548 F7800.000
G1 X118.327 Y168.548 E6.50923 F3600.000
G1 X118.327 Y163.464 E6.77481
G1 X117.379 Y162.412 E6.84881
G1 X116.395 Y160.706 E6.95170
G1 X115.786 Y158.833 E7.05458
G1 X115.580 Y156.875 E7.15746
G1 X115.786 Y154.917 E7.26034
G1 X116.395 Y153.044 E7.36323
G1 X117.379 Y151.338 E7.46611
G1 X118.327 Y150.286 E7.54011
G1 X118.327 Y145.202 E7.80569
G1 X131.673 Y145.202 E8.50293
G1 X131.673 Y150.286 E8.76851
G1 X132.621 Y151.338 E8.84252
G1 X133.605 Y153.044 E8.94540
G1 X134.214 Y154.917 E9.04828
G1 X134.420 Y156.875 E9.15116
G1 X134.214 Y158.833 E9.25404
G1 X133.605 Y160.706 E9.35693
G1 X132.621 Y162.412 E9.45981
G1 X131.673 Y163.464 E9.53381
G1 X131.673 Y168.488 E9.79626
G1 X132.050 Y168.925 F7800.000
G1 X117.950 Y168.925 E10.38649 F1800.000
G1 X117.950 Y163.609 E10.60901
G1 X117.073 Y162.635 E10.66391
G1 X116.048 Y160.861 E10.74966
G1 X115.415 Y158.912 E10.83541
G1 X115.201 Y156.875 E10.92116
G1 X115.415 Y154.838 E11.00691
G1 X116.048 Y152.889 E11.09267
G1 X117.073 Y151.115 E11.17842
G1 X117.950 Y150.141 E11.23331
G1 X117.950 Y144.825 E11.45583
G1 X132.050 Y144.825 E12.04606
G1 X132.050 Y150.141 E12.26859
G1 X132.927 Y151.115 E12.32348
G1 X133.952 Y152.889 E12.40923
G1 X134.585 Y154.838 E12.49498
G1 X134.799 Y156.875 E12.58074
G1 X134.585 Y158.912 E12.66649
G1 X133.952 Y160.861 E12.75224
G1 X132.927 Y162.635 E12.83799
G1 X132.050 Y163.609 E12.89289
G1 X132.050 Y168.865 E13.11290
G1 X131.704 Y168.725 F7800.000
G1 X118.993 Y167.664 F7800.000
G1 X119.211 Y167.882 E13.12918 F1200.000
G1 X119.811 Y167.882 E13.16092
G1 X118.993 Y167.064 E13.22208
G1 X118.993 Y166.464 E13.25382
G1 X120.411 Y167.882 E13.35986
G1 X121.011 Y167.882 E13.39160
G1 X118.993 Y165.864 E13.54252
G1 X118.993 Y165.265 E13.57425
G1 X121.610 Y167.882 E13.77005
G1 X122.210 Y167.882 E13.80179
G1 X118.993 Y164.665 E14.04247
G1 X118.993 Y164.065 E14.07420
G1 X122.810 Y167.882 E14.35976
G1 X123.410 Y167.882 E14.39149
G1 X118.993 Y163.465 E14.72193
G1 X117.768 Y161.640 F7800.000
G1 X124.010 Y167.882 E15.18892 F1200.000
G1 X124.610 Y167.882 E15.22065
G1 X116.981 Y160.254 E15.79136
G1 X116.693 Y159.365 E15.84079
G1 X125.209 Y167.882 E16.47798
G1 X125.809 Y167.882 E16.50971
G1 X116.431 Y158.504 E17.21135
G1 X116.361 Y157.833 E17.24701
G1 X126.409 Y167.882 E17.99879
G1 X127.009 Y167.882 E18.03053
G1 X116.290 Y157.163 E18.83246
G1 X116.276 Y156.548 E18.86498
G1 X127.609 Y167.882 E19.71289
G1 X128.209 Y167.882 E19.74462
G1 X116.333 Y156.006 E20.63314
G1 X116.390 Y155.463 E20.66202
