; generated by Slic3r 1.2.9 on 2017-08-07 at 04:10:50

; external perimeters extrusion width = 0.40mm
; perimeters extrusion width = 0.48mm
; infill extrusion width = 0.48mm
; solid infill extrusion width = 0.48mm
; top infill extrusion width = 0.48mm
; support material extrusion width = 0.40mm

M107
M104 S200 ; set temperature
G28 ; home all axes
G1 Z5 F5000 ; lift nozzle

M109 S200 ; wait for temperature to be reached
G21 ; set units to millimeters
G90 ; use absolute coordinates
M82 ; use absolute distances for extrusion
G92 E0
G1 Z0.350 F7800.000
G1 E-2.00000 F2400.00000
G92 E0
G1 X104.268 Y142.374 F7800.000
G1 E2.00000 F2400.00000
G1 X106.244 Y141.615 E2.19245 F1800.000
G1 X127.826 Y137.102 E4.19733
G1 X128.827 Y136.972 E4.28910
G1 X131.426 Y136.832 E4.52576
G1 X132.891 Y136.916 E4.65918
G1 X135.221 Y137.312 E4.87414 F1800.000
G1 X136.523 Y137.673 E4.99698
G1 X138.638 Y138.500 E5.20344
G1 X139.444 Y138.879 E5.28444
G1 X145.617 Y142.309 E5.92663
G1 X147.399 Y143.753 E6.13517
G1 X148.582 Y145.718 E6.34372
G1 X149.025 Y148.100 E6.56403
G1 X149.025 Y161.900 E7.81886
G1 X148.628 Y164.159 E8.02740
G1 X147.485 Y166.147 E8.23594
G1 X145.569 Y167.718 E8.46118
G1 X139.113 Y171.234 E9.12966
G1 X137.977 Y171.722 E9.24205
G1 X134.961 Y172.695 E9.53026
G1 X133.340 Y173.002 E9.68027
G1 X130.729 Y173.164 E9.91811
G1 X129.263 Y173.093 E10.05164
G1 X126.616 Y172.659 E10.29546
G1 X106.240 Y168.384 E12.18866
G1 X104.110 Y167.531 E12.39720
G1 X102.399 Y166.004 E12.60575
G1 X101.312 Y163.985 E12.81429
G1 X100.975 Y161.900 E13.00633
G1 X100.975 Y148.100 E14.26116
G1 X101.372 Y145.841 E14.46970
G1 X102.515 Y143.853 E14.67825
G1 X104.222 Y142.413 E14.88133
G1 E12.88133 F2400.00000
G92 E0
G1 X141.250 Y159.750 F7800.000
G1 E2.00000 F2400.00000
G1 X136.750 Y159.750 E2.40918 F1800.000
G1 X136.750 Y150.250 E3.27301
G1 X141.250 Y150.250 E3.68220
G1 X141.250 Y159.690 E4.54057
G1 X141.250 Y160.150 F7800.000
G1 X135.500 Y160.300 F7800.000
G1 X109.200 Y160.300 E6.93206 F1800.000
G1 X109.200 Y149.700 E7.89595
G1 X135.500 Y149.700 E10.28744
G1 X135.500 Y160.240 E11.24588
G1 X136.125 Y160.375 F7800.000
G1 X141.425 Y160.375 E11.72781 F1800.000
G1 X141.425 Y160.925 E11.77784
G1 X108.575 Y160.925 E14.76490
G1 X108.575 Y149.075 E15.84243
G1 X141.425 Y149.075 E18.82949
G1 X141.425 Y149.625 E18.87952
G1 X136.125 Y149.625 E19.36145
G1 X136.125 Y160.315 E20.33346
G1 X142.050 Y161.550 F7800.000
G1 X107.950 Y161.550 E23.43416 F1800.000
G1 X107.950 Y148.450 E24.62534
G1 X142.050 Y148.450 E27.72604
G1 X142.050 Y161.490 E28.91176
G1 X141.704 Y161.350 F7800.000
G1 X141.650 Y160.062 F7800.000
G1 X141.650 Y149.938 E29.83241 F1800.000
G1 X135.122 Y150.383 F7800.000
G1 X134.817 Y150.078 E29.87200 F1800.000
G1 X133.925 Y150.078 E29.95381
G1 X135.122 Y151.275 E30.10911
G1 X135.122 Y152.167 E30.19092
G1 X133.033 Y150.078 E30.46191
G1 X132.141 Y150.078 E30.54373
G1 X135.122 Y153.059 E30.93043
G1 X135.122 Y153.950 E31.01224
G1 X131.250 Y150.078 E31.51464
G1 X130.358 Y150.078 E31.59645
G1 X135.122 Y154.842 E32.21455
G1 X135.122 Y155.734 E32.29637
G1 X129.466 Y150.078 E33.03017
G1 X128.575 Y150.078 E33.11198
G1 X135.122 Y156.625 E33.96149
G1 X135.122 Y157.517 E34.04330
G1 X127.683 Y150.078 E35.00851
G1 X126.791 Y150.078 E35.09032
G1 X135.122 Y158.409 E36.17123
G1 X135.122 Y159.300 E36.25305
G1 X125.900 Y150.078 E37.44966
G1 X125.008 Y150.078 E37.53147
G1 X134.851 Y159.922 E38.80868
G1 X133.959 Y159.922 E38.89049
G1 X124.116 Y150.078 E40.16770
G1 X123.224 Y150.078 E40.24952
G1 X133.068 Y159.922 E41.52673
G1 X132.176 Y159.922 E41.60854
G1 X122.333 Y150.078 E42.88575
G1 X121.441 Y150.078 E42.96756
G1 X131.284 Y159.922 E44.24477
G1 X130.393 Y159.922 E44.32659
G1 X120.549 Y150.078 E45.60379
G1 X119.658 Y150.078 E45.68561
G1 X129.501 Y159.922 E46.96282
G1 X128.609 Y159.922 E47.04463
G1 X118.766 Y150.078 E48.32184
G1 X117.874 Y150.078 E48.40365
G1 X127.717 Y159.922 E49.68086
G1 X126.826 Y159.922 E49.76268
G1 X116.982 Y150.078 E51.03989
G1 X116.091 Y150.078 E51.12170
G1 X125.934 Y159.922 E52.39891
G1 X125.042 Y159.922 E52.48072
G1 X115.199 Y150.078 E53.75793
G1 X114.307 Y150.078 E53.83975
G1 X124.151 Y159.922 E55.11695
G1 X123.259 Y159.922 E55.19877
G1 X113.416 Y150.078 E56.47598
G1 X112.524 Y150.078 E56.55779
G1 X122.367 Y159.922 E57.83500
G1 X121.476 Y159.922 E57.91681
G1 X111.632 Y150.078 E59.19402
G1 X110.741 Y150.078 E59.27584
G1 X120.584 Y159.922 E60.55305
G1 X119.692 Y159.922 E60.63486
G1 X109.849 Y150.078 E61.91207
G1 X109.578 Y150.700 E61.97423
G1 X118.800 Y159.922 E63.17084
G1 X117.909 Y159.922 E63.25265
G1 X109.578 Y151.591 E64.33356
G1 X109.578 Y152.483 E64.41537
G1 X117.017 Y159.922 E65.38058
G1 X116.125 Y159.922 E65.46239
G1 X109.578 Y153.375 E66.31189
G1 X109.578 Y154.266 E66.39371
G1 X115.234 Y159.922 E67.12751
G1 X114.342 Y159.922 E67.20932
G1 X109.578 Y155.158 E67.82742
G1 X109.578 Y156.050 E67.90923
G1 X113.450 Y159.922 E68.41163
G1 X112.559 Y159.922 E68.49344
G1 X109.578 Y156.941 E68.88014
G1 X109.578 Y157.833 E68.96195
G1 X111.667 Y159.922 E69.23294
G1 X110.775 Y159.922 E69.31476
G1 X109.578 Y158.725 E69.47005
G1 X109.578 Y159.617 E69.55186
G1 X109.883 Y159.922 E69.59145
G1 Z0.350 F7800.000
G1 E67.59145 F2400.00000
G92 E0
G1 X123.931 Y164.155 F7800.000
G1 E2.00000 F2400.00000
G1 X124.815 Y162.393 E2.09319 F1800.000
G1 X127.344 Y162.393 E2.21275
G1 X125.854 Y165.366 E2.36996
G1 X127.977 Y166.175 E2.47739
G1 X129.873 Y162.393 E2.67741
G1 X132.402 Y162.393 E2.79698
G1 X130.317 Y166.552 E3.01694
G1 X132.927 Y166.390 E3.14060
G1 X134.931 Y162.393 E3.35196
G1 X137.460 Y162.393 E3.47152
G1 X135.944 Y165.417 E3.63144
G1 E1.63144 F2400.00000
G92 E0
G1 X137.283 Y147.607 F7800.000
G1 E2.00000 F2400.00000
G1 X138.140 Y145.897 E2.09044 F1800.000
G1 X136.226 Y144.670 E2.19792
G1 X134.754 Y147.607 E2.35325
G1 X132.225 Y147.607 E2.47281
G1 X134.112 Y143.844 E2.67184
G1 X131.781 Y143.448 E2.78360
G1 X129.696 Y147.607 E3.00357
G1 X127.167 Y147.607 E3.12313
G1 X129.182 Y143.587 E3.33572
G1 X126.182 Y144.527 E3.48436
G1 X124.638 Y147.607 E3.64723
G1 Z0.650 F7800.000
G1 E1.64723 F2400.00000
G92 E0
G1 X141.477 Y159.977 F7800.000
G1 E2.00000 F2400.00000
G1 X136.523 Y159.977 E2.25885 F900.000
G1 X136.523 Y150.023 E2.77892
G1 X141.477 Y150.023 E3.03777
G1 X141.477 Y159.917 E3.55470
G1 X141.100 Y159.600 F7800.000
G1 X136.900 Y159.600 E3.73052 F900.000
G1 X136.900 Y150.400 E4.11563
G1 X141.100 Y150.400 E4.29145
G1 X141.100 Y159.540 E4.67405
G1 X141.100 Y160.000 F7800.000
G1 X136.104 Y160.396 F7800.000
G1 X141.404 Y160.396 E4.95095 F3600.000
G1 X141.404 Y160.904 E4.97747
G1 X108.596 Y160.904 E6.69151
G1 X108.596 Y149.096 E7.30841
G1 X141.404 Y149.096 E9.02244
G1 X141.404 Y149.604 E9.04897
G1 X136.104 Y149.604 E9.32587
G1 X136.104 Y160.336 E9.88657
G1 X141.823 Y161.323 F7800.000
G1 X108.177 Y161.323 E11.64438 F3600.000
G1 X108.177 Y148.677 E12.30504
G1 X141.823 Y148.677 E14.06285
G1 X141.823 Y161.263 E14.72038
G1 X142.200 Y161.700 F7800.000
G1 X107.800 Y161.700 E16.16037 F1800.000
G1 X107.800 Y148.300 E16.72130
G1 X142.200 Y148.300 E18.16129
G1 X142.200 Y161.640 E18.71971
G1 X141.854 Y161.500 F7800.000
G1 X141.194 Y160.650 F7800.000
G1 X135.894 Y160.650 E18.99661 F1200.000
G1 X135.430 Y160.657 F7800.000
G1 X135.647 Y160.439 E19.01285 F1200.000
G1 X135.857 Y159.631 E19.05686
G1 X134.831 Y160.657 E19.13334
G1 X134.233 Y160.657 E19.16490
G1 X135.857 Y159.033 E19.28600
G1 X135.857 Y158.435 E19.31756
G1 X133.635 Y160.657 E19.48329
G1 X133.037 Y160.657 E19.51484
G1 X135.857 Y157.837 E19.72519
G1 X135.857 Y157.239 E19.75674
G1 X132.439 Y160.657 E20.01171
G1 X131.841 Y160.657 E20.04326
G1 X135.857 Y156.641 E20.34286
G1 X135.857 Y156.043 E20.37441
G1 X131.243 Y160.657 E20.71862
G1 X130.645 Y160.657 E20.75017
G1 X135.857 Y155.445 E21.13901
G1 X135.857 Y154.846 E21.17056
G1 X130.046 Y160.657 E21.60402
G1 X129.448 Y160.657 E21.63557
G1 X135.857 Y154.248 E22.11365
G1 X135.857 Y153.650 E22.14520
G1 X128.850 Y160.657 E22.66790
G1 X128.252 Y160.657 E22.69945
G1 X135.857 Y153.052 E23.26677
G1 X135.857 Y152.454 E23.29832
G1 X127.654 Y160.657 E23.91026
G1 X127.056 Y160.657 E23.94181
G1 X135.857 Y151.856 E24.59838
G1 X135.857 Y151.258 E24.62993
G1 X126.458 Y160.657 E25.33111
G1 X125.860 Y160.657 E25.36266
G1 X135.857 Y150.660 E26.10847
G1 X135.857 Y150.061 E26.14002
G1 X125.261 Y160.657 E26.93045
G1 X124.663 Y160.657 E26.96200
G1 X135.647 Y149.673 E27.78142
G1 X135.379 Y149.343 E27.80385
G1 X124.065 Y160.657 E28.64784
G1 X123.467 Y160.657 E28.67940
G1 X134.780 Y149.343 E29.52339
G1 X134.182 Y149.343 E29.55495
G1 X122.869 Y160.657 E30.39894
G1 X122.271 Y160.657 E30.43050
G1 X133.584 Y149.343 E31.27449
G1 X132.986 Y149.343 E31.30605
G1 X121.673 Y160.657 E32.15004
G1 X121.075 Y160.657 E32.18160
G1 X132.388 Y149.343 E33.02559
G1 X131.790 Y149.343 E33.05715
G1 X120.476 Y160.657 E33.90114
G1 X119.878 Y160.657 E33.93270
G1 X131.192 Y149.343 E34.77669
G1 X130.594 Y149.343 E34.80825
G1 X119.280 Y160.657 E35.65224
G1 X118.682 Y160.657 E35.68380
G1 X129.995 Y149.343 E36.52779
G1 X129.397 Y149.343 E36.55934
G1 X118.084 Y160.657 E37.40334
G1 X117.486 Y160.657 E37.43489
G1 X128.799 Y149.343 E38.27889
G1 X128.201 Y149.343 E38.31044
G1 X116.888 Y160.657 E39.15444
G1 X116.290 Y160.657 E39.18599
G1 X127.603 Y149.343 E40.02999
G1 X127.005 Y149.343 E40.06154
G1 X115.691 Y160.657 E40.90554
G1 X115.093 Y160.657 E40.93709
G1 X126.407 Y149.343 E41.78109
G1 X125.809 Y149.343 E41.81264
G1 X114.495 Y160.657 E42.65664
G1 X113.897 Y160.657 E42.68819
G1 X125.210 Y149.343 E43.53219
G1 X124.612 Y149.343 E43.56374
G1 X113.299 Y160.657 E44.40774
G1 X112.701 Y160.657 E44.43929
G1 X124.014 Y149.343 E45.28329
G1 X123.416 Y149.343 E45.31484
G1 X112.103 Y160.657 E46.15884
G1 X111.505 Y160.657 E46.19039
G1 X122.818 Y149.343 E47.03439
G1 X122.220 Y149.343 E47.06594
G1 X110.906 Y160.657 E47.90994
G1 X110.308 Y160.657 E47.94149
G1 X121.622 Y149.343 E48.78549
G1 X121.024 Y149.343 E48.81704
G1 X109.710 Y160.657 E49.66104
G1 X109.112 Y160.657 E49.69259
G1 X120.425 Y149.343 E50.53659
G1 X119.827 Y149.343 E50.56814
G1 X108.843 Y160.327 E51.38757
G1 X108.843 Y159.729 E51.41912
G1 X119.229 Y149.343 E52.19392
G1 X118.631 Y149.343 E52.22547
G1 X108.843 Y159.131 E52.95565
G1 X108.843 Y158.533 E52.98721
G1 X118.033 Y149.343 E53.67276
G1 X117.435 Y149.343 E53.70432
G1 X108.843 Y157.935 E54.34525
G1 X108.843 Y157.337 E54.37681
G1 X116.837 Y149.343 E54.97312
G1 X116.239 Y149.343 E55.00468
G1 X108.843 Y156.739 E55.55637
G1 X108.843 Y156.140 E55.58792
G1 X115.640 Y149.343 E56.09500
G1 X115.042 Y149.343 E56.12655
G1 X108.843 Y155.542 E56.58900
G1 X108.843 Y154.944 E56.62055
G1 X114.444 Y149.343 E57.03839
G1 X113.846 Y149.343 E57.06994
G1 X108.843 Y154.346 E57.44315
G1 X108.843 Y153.748 E57.47470
G1 X113.248 Y149.343 E57.80329
G1 X112.650 Y149.343 E57.83484
G1 X108.843 Y153.150 E58.11881
G1 X108.843 Y152.552 E58.15036
G1 X112.052 Y149.343 E58.38971
G1 X111.454 Y149.343 E58.42126
G1 X108.843 Y151.954 E58.61599
G1 X108.843 Y151.355 E58.64754
G1 X110.855 Y149.343 E58.79765
G1 X110.257 Y149.343 E58.82920
G1 X108.843 Y150.757 E58.93468
G1 X108.843 Y150.159 E58.96623
G1 X109.659 Y149.343 E59.02710
G1 X109.061 Y149.343 E59.05865
G1 X108.843 Y149.561 E59.07489
G1 X135.894 Y149.350 F7800.000
G1 X141.194 Y149.350 E59.35179 F1200.000
G1 Z0.650 F7800.000
G1 E57.35179 F2400.00000
G92 E0
G1 X138.397 Y146.227 F7800.000
G1 E2.00000 F2400.00000
G1 X138.220 Y146.535 E2.01484 F3600.000
G1 X138.520 Y147.054 E2.03996
G1 X138.885 Y147.054 E2.05522
G1 X138.716 Y147.573 E2.07806
G1 X138.489 Y147.180 E2.09704
G1 X137.889 Y147.180 E2.12215
G1 X137.589 Y147.700 E2.14727
G1 X136.989 Y147.700 E2.17239
G1 X136.689 Y147.180 E2.19750
G1 X136.089 Y147.180 E2.22262
G1 X135.789 Y147.700 E2.24773
G1 X135.189 Y147.700 E2.27285
G1 X134.889 Y147.180 E2.29797
G1 X134.289 Y147.180 E2.32308
G1 X133.989 Y147.700 E2.34820
G1 X133.389 Y147.700 E2.37332
G1 X133.089 Y147.180 E2.39843
G1 X132.489 Y147.180 E2.42355
G1 X132.189 Y147.700 E2.44866
G1 X131.589 Y147.700 E2.47378
G1 X131.289 Y147.180 E2.49890
G1 X130.689 Y147.180 E2.52401
G1 X130.389 Y147.700 E2.54913
G1 X129.789 Y147.700 E2.57425
G1 X129.489 Y147.180 E2.59936
G1 X128.889 Y147.180 E2.62448
G1 X128.589 Y147.700 E2.64959
G1 X127.989 Y147.700 E2.67471
G1 X127.689 Y147.180 E2.69983
G1 X127.089 Y147.180 E2.72494
G1 X126.789 Y147.700 E2.75006
G1 X126.189 Y147.700 E2.77517
G1 X125.889 Y147.180 E2.80029
G1 X125.289 Y147.180 E2.82541
G1 X124.989 Y147.700 E2.85052
G1 X124.389 Y147.700 E2.87564
G1 X124.089 Y147.180 E2.90076
G1 X123.489 Y147.180 E2.92587
G1 X123.276 Y147.550 E2.94372
G1 X123.111 Y147.042 F7800.000
G1 X123.497 Y147.042 E2.95986 F3600.000
G1 X123.797 Y146.522 E2.98498
G1 X123.620 Y146.215 E2.99982
G1 X124.231 Y145.771 F7800.000
G1 X124.353 Y145.984 E3.01010 F3600.000
G1 X124.953 Y145.984 E3.03521
G1 X125.253 Y145.464 E3.06033
G1 X125.076 Y145.157 E3.07517
G1 X125.744 Y144.812 F7800.000
G1 X125.921 Y145.119 E3.09002 F3600.000
G1 X126.521 Y145.119 E3.11513
G1 X126.821 Y144.599 E3.14025
G1 X126.698 Y144.387 E3.15052
G1 X126.993 Y144.256 F7800.000
G1 X127.370 Y144.088 E3.16779 F3600.000
G1 X127.595 Y144.479 E3.18668
G1 X128.195 Y144.479 E3.21179
G1 X128.495 Y143.959 E3.23691
G1 X128.430 Y143.845 E3.24240
G1 X129.122 Y143.698 E3.27201
G1 X129.356 Y144.104 E3.29163
G1 X129.956 Y144.104 E3.31675
G1 X130.256 Y143.585 E3.34187
G1 X130.239 Y143.555 E3.34332
G1 X130.853 Y143.555 E3.36903
G1 X131.153 Y144.074 E3.39414
G1 X131.753 Y144.074 E3.41926 F3600.000
G1 X131.899 Y143.821 E3.43149
G1 X132.065 Y144.109 E3.44538
G1 X132.665 Y144.109 E3.47049
G1 X132.899 Y143.703 E3.49012
G1 X133.591 Y143.850 E3.51973
G1 X133.525 Y143.963 E3.52522
G1 X133.825 Y144.483 E3.55033
G1 X134.425 Y144.483 E3.57545
G1 X134.649 Y144.096 E3.59415
G1 X135.321 Y144.395 E3.62495
G1 X135.198 Y144.608 E3.63522
G1 X135.498 Y145.128 E3.66034
G1 X136.098 Y145.128 E3.68545
G1 X136.276 Y144.820 E3.70030
G1 X136.754 Y145.034 F7800.000
G1 X136.854 Y145.106 E3.70547 F3600.000
G1 X136.924 Y145.157 F7800.000
G1 X136.941 Y145.169 E3.70636 F3600.000
G1 X136.764 Y145.477 E3.72120
G1 X137.064 Y145.996 E3.74632
G1 X137.664 Y145.996 E3.77144
G1 X137.787 Y145.784 E3.78171
G1 E1.78171 F2400.00000
G92 E0
G1 X134.886 Y145.178 F7800.000
G1 E2.00000 F2400.00000
G1 X134.158 Y146.630 E2.06800 F3600.000
G1 E0.06800 F2400.00000
G92 E0
G1 X132.534 Y144.659 F7800.000
G1 E2.00000 F2400.00000
G1 X131.516 Y146.689 E2.09504 F3600.000
G1 X129.923 Y144.654 E2.20320
G1 X128.933 Y146.630 E2.29573
G1 X126.828 Y145.616 E2.39352
G1 X126.252 Y146.767 E2.44738
G1 E0.44738 F2400.00000
G92 E0
G1 X123.325 Y162.300 F7800.000
G1 E2.00000 F2400.00000
G1 X123.840 Y162.300 E2.02157 F3600.000
G1 X124.140 Y162.820 E2.04668
G1 X124.740 Y162.820 E2.07180
G1 X125.040 Y162.300 E2.09692
G1 X125.640 Y162.300 E2.12203
G1 X125.940 Y162.820 E2.14715
G1 X126.540 Y162.820 E2.17227
G1 X126.840 Y162.300 E2.19738
G1 X127.440 Y162.300 E2.22250
G1 X127.740 Y162.820 E2.24761
G1 X128.340 Y162.820 E2.27273
G1 X128.640 Y162.300 E2.29785
G1 X129.240 Y162.300 E2.32296
G1 X129.540 Y162.820 E2.34808
G1 X130.140 Y162.820 E2.37319
G1 X130.440 Y162.300 E2.39831
G1 X131.040 Y162.300 E2.42343
G1 X131.340 Y162.820 E2.44854
G1 X131.940 Y162.820 E2.47366
G1 X132.240 Y162.300 E2.49878
G1 X132.840 Y162.300 E2.52389
G1 X133.140 Y162.820 E2.54901
G1 X133.740 Y162.820 E2.57412
G1 X134.040 Y162.300 E2.59924
G1 X134.640 Y162.300 E2.62436
G1 X134.940 Y162.820 E2.64947
G1 X135.540 Y162.820 E2.67459
G1 X135.840 Y162.300 E2.69970
G1 X136.440 Y162.300 E2.72482
G1 X136.740 Y162.820 E2.74994
G1 X137.340 Y162.820 E2.77505
G1 X137.640 Y162.300 E2.80017
G1 X138.217 Y162.300 E2.82430
G1 X138.126 Y162.457 E2.83191
G1 X138.426 Y162.977 E2.85703 F3600.000
G1 X138.612 Y162.977 E2.86480
G1 X138.409 Y163.328 E2.88178
G1 X138.586 Y163.635 E2.89662
G1 X137.975 Y164.079 E2.92823
G1 X137.853 Y163.867 E2.93850
G1 X137.253 Y163.867 E2.96361
G1 X136.953 Y164.386 E2.98873
G1 X137.130 Y164.693 E3.00358
G1 X136.754 Y164.966 E3.02302
G1 X136.489 Y165.085 E3.03518
G1 X136.312 Y164.777 E3.05003
G1 X135.712 Y164.777 E3.07514
G1 X135.412 Y165.297 E3.10026
G1 X135.534 Y165.510 E3.11053
